(Compact PCB Mask Ablation Calibration Panel 70x100)
(Fits within 70x100 mm board; set origin at lower-left corner)
(Laser: GRBL laser mode $32=1, $30=1000, S=0..1000)
G21
G90
G92 X0 Y0
M5
G0 X0 Y0
(1) Raster matrix: rows=speeds, cols=powers; tile 7x7, hatch 0.18, 2 passes)
(Tile r1c1: F120, S500)
G0 X5.000 Y5.000
M3 S500
G1 X12.000 Y5.000 F120
M5
G0 X12.000 Y5.180
M3 S500
G1 X5.000 Y5.180 F120
M5
G0 X5.000 Y5.360
M3 S500
G1 X12.000 Y5.360 F120
M5
G0 X12.000 Y5.540
M3 S500
G1 X5.000 Y5.540 F120
M5
G0 X5.000 Y5.720
M3 S500
G1 X12.000 Y5.720 F120
M5
G0 X12.000 Y5.900
M3 S500
G1 X5.000 Y5.900 F120
M5
G0 X5.000 Y6.080
M3 S500
G1 X12.000 Y6.080 F120
M5
G0 X12.000 Y6.260
M3 S500
G1 X5.000 Y6.260 F120
M5
G0 X5.000 Y6.440
M3 S500
G1 X12.000 Y6.440 F120
M5
G0 X12.000 Y6.620
M3 S500
G1 X5.000 Y6.620 F120
M5
G0 X5.000 Y6.800
M3 S500
G1 X12.000 Y6.800 F120
M5
G0 X12.000 Y6.980
M3 S500
G1 X5.000 Y6.980 F120
M5
G0 X5.000 Y7.160
M3 S500
G1 X12.000 Y7.160 F120
M5
G0 X12.000 Y7.340
M3 S500
G1 X5.000 Y7.340 F120
M5
G0 X5.000 Y7.520
M3 S500
G1 X12.000 Y7.520 F120
M5
G0 X12.000 Y7.700
M3 S500
G1 X5.000 Y7.700 F120
M5
G0 X5.000 Y7.880
M3 S500
G1 X12.000 Y7.880 F120
M5
G0 X12.000 Y8.060
M3 S500
G1 X5.000 Y8.060 F120
M5
G0 X5.000 Y8.240
M3 S500
G1 X12.000 Y8.240 F120
M5
G0 X12.000 Y8.420
M3 S500
G1 X5.000 Y8.420 F120
M5
G0 X5.000 Y8.600
M3 S500
G1 X12.000 Y8.600 F120
M5
G0 X12.000 Y8.780
M3 S500
G1 X5.000 Y8.780 F120
M5
G0 X5.000 Y8.960
M3 S500
G1 X12.000 Y8.960 F120
M5
G0 X12.000 Y9.140
M3 S500
G1 X5.000 Y9.140 F120
M5
G0 X5.000 Y9.320
M3 S500
G1 X12.000 Y9.320 F120
M5
G0 X12.000 Y9.500
M3 S500
G1 X5.000 Y9.500 F120
M5
G0 X5.000 Y9.680
M3 S500
G1 X12.000 Y9.680 F120
M5
G0 X12.000 Y9.860
M3 S500
G1 X5.000 Y9.860 F120
M5
G0 X5.000 Y10.040
M3 S500
G1 X12.000 Y10.040 F120
M5
G0 X12.000 Y10.220
M3 S500
G1 X5.000 Y10.220 F120
M5
G0 X5.000 Y10.400
M3 S500
G1 X12.000 Y10.400 F120
M5
G0 X12.000 Y10.580
M3 S500
G1 X5.000 Y10.580 F120
M5
G0 X5.000 Y10.760
M3 S500
G1 X12.000 Y10.760 F120
M5
G0 X12.000 Y10.940
M3 S500
G1 X5.000 Y10.940 F120
M5
G0 X5.000 Y11.120
M3 S500
G1 X12.000 Y11.120 F120
M5
G0 X12.000 Y11.300
M3 S500
G1 X5.000 Y11.300 F120
M5
G0 X5.000 Y11.480
M3 S500
G1 X12.000 Y11.480 F120
M5
G0 X12.000 Y11.660
M3 S500
G1 X5.000 Y11.660 F120
M5
G0 X5.000 Y11.840
M3 S500
G1 X12.000 Y11.840 F120
M5
G0 X5.000 Y5.000
M3 S500
G1 X12.000 Y5.000 F120
M5
G0 X12.000 Y5.180
M3 S500
G1 X5.000 Y5.180 F120
M5
G0 X5.000 Y5.360
M3 S500
G1 X12.000 Y5.360 F120
M5
G0 X12.000 Y5.540
M3 S500
G1 X5.000 Y5.540 F120
M5
G0 X5.000 Y5.720
M3 S500
G1 X12.000 Y5.720 F120
M5
G0 X12.000 Y5.900
M3 S500
G1 X5.000 Y5.900 F120
M5
G0 X5.000 Y6.080
M3 S500
G1 X12.000 Y6.080 F120
M5
G0 X12.000 Y6.260
M3 S500
G1 X5.000 Y6.260 F120
M5
G0 X5.000 Y6.440
M3 S500
G1 X12.000 Y6.440 F120
M5
G0 X12.000 Y6.620
M3 S500
G1 X5.000 Y6.620 F120
M5
G0 X5.000 Y6.800
M3 S500
G1 X12.000 Y6.800 F120
M5
G0 X12.000 Y6.980
M3 S500
G1 X5.000 Y6.980 F120
M5
G0 X5.000 Y7.160
M3 S500
G1 X12.000 Y7.160 F120
M5
G0 X12.000 Y7.340
M3 S500
G1 X5.000 Y7.340 F120
M5
G0 X5.000 Y7.520
M3 S500
G1 X12.000 Y7.520 F120
M5
G0 X12.000 Y7.700
M3 S500
G1 X5.000 Y7.700 F120
M5
G0 X5.000 Y7.880
M3 S500
G1 X12.000 Y7.880 F120
M5
G0 X12.000 Y8.060
M3 S500
G1 X5.000 Y8.060 F120
M5
G0 X5.000 Y8.240
M3 S500
G1 X12.000 Y8.240 F120
M5
G0 X12.000 Y8.420
M3 S500
G1 X5.000 Y8.420 F120
M5
G0 X5.000 Y8.600
M3 S500
G1 X12.000 Y8.600 F120
M5
G0 X12.000 Y8.780
M3 S500
G1 X5.000 Y8.780 F120
M5
G0 X5.000 Y8.960
M3 S500
G1 X12.000 Y8.960 F120
M5
G0 X12.000 Y9.140
M3 S500
G1 X5.000 Y9.140 F120
M5
G0 X5.000 Y9.320
M3 S500
G1 X12.000 Y9.320 F120
M5
G0 X12.000 Y9.500
M3 S500
G1 X5.000 Y9.500 F120
M5
G0 X5.000 Y9.680
M3 S500
G1 X12.000 Y9.680 F120
M5
G0 X12.000 Y9.860
M3 S500
G1 X5.000 Y9.860 F120
M5
G0 X5.000 Y10.040
M3 S500
G1 X12.000 Y10.040 F120
M5
G0 X12.000 Y10.220
M3 S500
G1 X5.000 Y10.220 F120
M5
G0 X5.000 Y10.400
M3 S500
G1 X12.000 Y10.400 F120
M5
G0 X12.000 Y10.580
M3 S500
G1 X5.000 Y10.580 F120
M5
G0 X5.000 Y10.760
M3 S500
G1 X12.000 Y10.760 F120
M5
G0 X12.000 Y10.940
M3 S500
G1 X5.000 Y10.940 F120
M5
G0 X5.000 Y11.120
M3 S500
G1 X12.000 Y11.120 F120
M5
G0 X12.000 Y11.300
M3 S500
G1 X5.000 Y11.300 F120
M5
G0 X5.000 Y11.480
M3 S500
G1 X12.000 Y11.480 F120
M5
G0 X12.000 Y11.660
M3 S500
G1 X5.000 Y11.660 F120
M5
G0 X5.000 Y11.840
M3 S500
G1 X12.000 Y11.840 F120
M5
G0 X5.000 Y5.000
M3 S140
G1 X12.000 Y5.000 F900
M5
M3 S140
G1 X12.000 Y12.000 F900
M5
M3 S140
G1 X5.000 Y12.000 F900
M5
M3 S140
G1 X5.000 Y5.000 F900
M5
(Tile r1c2: F120, S650)
G0 X15.000 Y5.000
M3 S650
G1 X22.000 Y5.000 F120
M5
G0 X22.000 Y5.180
M3 S650
G1 X15.000 Y5.180 F120
M5
G0 X15.000 Y5.360
M3 S650
G1 X22.000 Y5.360 F120
M5
G0 X22.000 Y5.540
M3 S650
G1 X15.000 Y5.540 F120
M5
G0 X15.000 Y5.720
M3 S650
G1 X22.000 Y5.720 F120
M5
G0 X22.000 Y5.900
M3 S650
G1 X15.000 Y5.900 F120
M5
G0 X15.000 Y6.080
M3 S650
G1 X22.000 Y6.080 F120
M5
G0 X22.000 Y6.260
M3 S650
G1 X15.000 Y6.260 F120
M5
G0 X15.000 Y6.440
M3 S650
G1 X22.000 Y6.440 F120
M5
G0 X22.000 Y6.620
M3 S650
G1 X15.000 Y6.620 F120
M5
G0 X15.000 Y6.800
M3 S650
G1 X22.000 Y6.800 F120
M5
G0 X22.000 Y6.980
M3 S650
G1 X15.000 Y6.980 F120
M5
G0 X15.000 Y7.160
M3 S650
G1 X22.000 Y7.160 F120
M5
G0 X22.000 Y7.340
M3 S650
G1 X15.000 Y7.340 F120
M5
G0 X15.000 Y7.520
M3 S650
G1 X22.000 Y7.520 F120
M5
G0 X22.000 Y7.700
M3 S650
G1 X15.000 Y7.700 F120
M5
G0 X15.000 Y7.880
M3 S650
G1 X22.000 Y7.880 F120
M5
G0 X22.000 Y8.060
M3 S650
G1 X15.000 Y8.060 F120
M5
G0 X15.000 Y8.240
M3 S650
G1 X22.000 Y8.240 F120
M5
G0 X22.000 Y8.420
M3 S650
G1 X15.000 Y8.420 F120
M5
G0 X15.000 Y8.600
M3 S650
G1 X22.000 Y8.600 F120
M5
G0 X22.000 Y8.780
M3 S650
G1 X15.000 Y8.780 F120
M5
G0 X15.000 Y8.960
M3 S650
G1 X22.000 Y8.960 F120
M5
G0 X22.000 Y9.140
M3 S650
G1 X15.000 Y9.140 F120
M5
G0 X15.000 Y9.320
M3 S650
G1 X22.000 Y9.320 F120
M5
G0 X22.000 Y9.500
M3 S650
G1 X15.000 Y9.500 F120
M5
G0 X15.000 Y9.680
M3 S650
G1 X22.000 Y9.680 F120
M5
G0 X22.000 Y9.860
M3 S650
G1 X15.000 Y9.860 F120
M5
G0 X15.000 Y10.040
M3 S650
G1 X22.000 Y10.040 F120
M5
G0 X22.000 Y10.220
M3 S650
G1 X15.000 Y10.220 F120
M5
G0 X15.000 Y10.400
M3 S650
G1 X22.000 Y10.400 F120
M5
G0 X22.000 Y10.580
M3 S650
G1 X15.000 Y10.580 F120
M5
G0 X15.000 Y10.760
M3 S650
G1 X22.000 Y10.760 F120
M5
G0 X22.000 Y10.940
M3 S650
G1 X15.000 Y10.940 F120
M5
G0 X15.000 Y11.120
M3 S650
G1 X22.000 Y11.120 F120
M5
G0 X22.000 Y11.300
M3 S650
G1 X15.000 Y11.300 F120
M5
G0 X15.000 Y11.480
M3 S650
G1 X22.000 Y11.480 F120
M5
G0 X22.000 Y11.660
M3 S650
G1 X15.000 Y11.660 F120
M5
G0 X15.000 Y11.840
M3 S650
G1 X22.000 Y11.840 F120
M5
G0 X15.000 Y5.000
M3 S650
G1 X22.000 Y5.000 F120
M5
G0 X22.000 Y5.180
M3 S650
G1 X15.000 Y5.180 F120
M5
G0 X15.000 Y5.360
M3 S650
G1 X22.000 Y5.360 F120
M5
G0 X22.000 Y5.540
M3 S650
G1 X15.000 Y5.540 F120
M5
G0 X15.000 Y5.720
M3 S650
G1 X22.000 Y5.720 F120
M5
G0 X22.000 Y5.900
M3 S650
G1 X15.000 Y5.900 F120
M5
G0 X15.000 Y6.080
M3 S650
G1 X22.000 Y6.080 F120
M5
G0 X22.000 Y6.260
M3 S650
G1 X15.000 Y6.260 F120
M5
G0 X15.000 Y6.440
M3 S650
G1 X22.000 Y6.440 F120
M5
G0 X22.000 Y6.620
M3 S650
G1 X15.000 Y6.620 F120
M5
G0 X15.000 Y6.800
M3 S650
G1 X22.000 Y6.800 F120
M5
G0 X22.000 Y6.980
M3 S650
G1 X15.000 Y6.980 F120
M5
G0 X15.000 Y7.160
M3 S650
G1 X22.000 Y7.160 F120
M5
G0 X22.000 Y7.340
M3 S650
G1 X15.000 Y7.340 F120
M5
G0 X15.000 Y7.520
M3 S650
G1 X22.000 Y7.520 F120
M5
G0 X22.000 Y7.700
M3 S650
G1 X15.000 Y7.700 F120
M5
G0 X15.000 Y7.880
M3 S650
G1 X22.000 Y7.880 F120
M5
G0 X22.000 Y8.060
M3 S650
G1 X15.000 Y8.060 F120
M5
G0 X15.000 Y8.240
M3 S650
G1 X22.000 Y8.240 F120
M5
G0 X22.000 Y8.420
M3 S650
G1 X15.000 Y8.420 F120
M5
G0 X15.000 Y8.600
M3 S650
G1 X22.000 Y8.600 F120
M5
G0 X22.000 Y8.780
M3 S650
G1 X15.000 Y8.780 F120
M5
G0 X15.000 Y8.960
M3 S650
G1 X22.000 Y8.960 F120
M5
G0 X22.000 Y9.140
M3 S650
G1 X15.000 Y9.140 F120
M5
G0 X15.000 Y9.320
M3 S650
G1 X22.000 Y9.320 F120
M5
G0 X22.000 Y9.500
M3 S650
G1 X15.000 Y9.500 F120
M5
G0 X15.000 Y9.680
M3 S650
G1 X22.000 Y9.680 F120
M5
G0 X22.000 Y9.860
M3 S650
G1 X15.000 Y9.860 F120
M5
G0 X15.000 Y10.040
M3 S650
G1 X22.000 Y10.040 F120
M5
G0 X22.000 Y10.220
M3 S650
G1 X15.000 Y10.220 F120
M5
G0 X15.000 Y10.400
M3 S650
G1 X22.000 Y10.400 F120
M5
G0 X22.000 Y10.580
M3 S650
G1 X15.000 Y10.580 F120
M5
G0 X15.000 Y10.760
M3 S650
G1 X22.000 Y10.760 F120
M5
G0 X22.000 Y10.940
M3 S650
G1 X15.000 Y10.940 F120
M5
G0 X15.000 Y11.120
M3 S650
G1 X22.000 Y11.120 F120
M5
G0 X22.000 Y11.300
M3 S650
G1 X15.000 Y11.300 F120
M5
G0 X15.000 Y11.480
M3 S650
G1 X22.000 Y11.480 F120
M5
G0 X22.000 Y11.660
M3 S650
G1 X15.000 Y11.660 F120
M5
G0 X15.000 Y11.840
M3 S650
G1 X22.000 Y11.840 F120
M5
G0 X15.000 Y5.000
M3 S140
G1 X22.000 Y5.000 F900
M5
M3 S140
G1 X22.000 Y12.000 F900
M5
M3 S140
G1 X15.000 Y12.000 F900
M5
M3 S140
G1 X15.000 Y5.000 F900
M5
(Tile r1c3: F120, S800)
G0 X25.000 Y5.000
M3 S800
G1 X32.000 Y5.000 F120
M5
G0 X32.000 Y5.180
M3 S800
G1 X25.000 Y5.180 F120
M5
G0 X25.000 Y5.360
M3 S800
G1 X32.000 Y5.360 F120
M5
G0 X32.000 Y5.540
M3 S800
G1 X25.000 Y5.540 F120
M5
G0 X25.000 Y5.720
M3 S800
G1 X32.000 Y5.720 F120
M5
G0 X32.000 Y5.900
M3 S800
G1 X25.000 Y5.900 F120
M5
G0 X25.000 Y6.080
M3 S800
G1 X32.000 Y6.080 F120
M5
G0 X32.000 Y6.260
M3 S800
G1 X25.000 Y6.260 F120
M5
G0 X25.000 Y6.440
M3 S800
G1 X32.000 Y6.440 F120
M5
G0 X32.000 Y6.620
M3 S800
G1 X25.000 Y6.620 F120
M5
G0 X25.000 Y6.800
M3 S800
G1 X32.000 Y6.800 F120
M5
G0 X32.000 Y6.980
M3 S800
G1 X25.000 Y6.980 F120
M5
G0 X25.000 Y7.160
M3 S800
G1 X32.000 Y7.160 F120
M5
G0 X32.000 Y7.340
M3 S800
G1 X25.000 Y7.340 F120
M5
G0 X25.000 Y7.520
M3 S800
G1 X32.000 Y7.520 F120
M5
G0 X32.000 Y7.700
M3 S800
G1 X25.000 Y7.700 F120
M5
G0 X25.000 Y7.880
M3 S800
G1 X32.000 Y7.880 F120
M5
G0 X32.000 Y8.060
M3 S800
G1 X25.000 Y8.060 F120
M5
G0 X25.000 Y8.240
M3 S800
G1 X32.000 Y8.240 F120
M5
G0 X32.000 Y8.420
M3 S800
G1 X25.000 Y8.420 F120
M5
G0 X25.000 Y8.600
M3 S800
G1 X32.000 Y8.600 F120
M5
G0 X32.000 Y8.780
M3 S800
G1 X25.000 Y8.780 F120
M5
G0 X25.000 Y8.960
M3 S800
G1 X32.000 Y8.960 F120
M5
G0 X32.000 Y9.140
M3 S800
G1 X25.000 Y9.140 F120
M5
G0 X25.000 Y9.320
M3 S800
G1 X32.000 Y9.320 F120
M5
G0 X32.000 Y9.500
M3 S800
G1 X25.000 Y9.500 F120
M5
G0 X25.000 Y9.680
M3 S800
G1 X32.000 Y9.680 F120
M5
G0 X32.000 Y9.860
M3 S800
G1 X25.000 Y9.860 F120
M5
G0 X25.000 Y10.040
M3 S800
G1 X32.000 Y10.040 F120
M5
G0 X32.000 Y10.220
M3 S800
G1 X25.000 Y10.220 F120
M5
G0 X25.000 Y10.400
M3 S800
G1 X32.000 Y10.400 F120
M5
G0 X32.000 Y10.580
M3 S800
G1 X25.000 Y10.580 F120
M5
G0 X25.000 Y10.760
M3 S800
G1 X32.000 Y10.760 F120
M5
G0 X32.000 Y10.940
M3 S800
G1 X25.000 Y10.940 F120
M5
G0 X25.000 Y11.120
M3 S800
G1 X32.000 Y11.120 F120
M5
G0 X32.000 Y11.300
M3 S800
G1 X25.000 Y11.300 F120
M5
G0 X25.000 Y11.480
M3 S800
G1 X32.000 Y11.480 F120
M5
G0 X32.000 Y11.660
M3 S800
G1 X25.000 Y11.660 F120
M5
G0 X25.000 Y11.840
M3 S800
G1 X32.000 Y11.840 F120
M5
G0 X25.000 Y5.000
M3 S800
G1 X32.000 Y5.000 F120
M5
G0 X32.000 Y5.180
M3 S800
G1 X25.000 Y5.180 F120
M5
G0 X25.000 Y5.360
M3 S800
G1 X32.000 Y5.360 F120
M5
G0 X32.000 Y5.540
M3 S800
G1 X25.000 Y5.540 F120
M5
G0 X25.000 Y5.720
M3 S800
G1 X32.000 Y5.720 F120
M5
G0 X32.000 Y5.900
M3 S800
G1 X25.000 Y5.900 F120
M5
G0 X25.000 Y6.080
M3 S800
G1 X32.000 Y6.080 F120
M5
G0 X32.000 Y6.260
M3 S800
G1 X25.000 Y6.260 F120
M5
G0 X25.000 Y6.440
M3 S800
G1 X32.000 Y6.440 F120
M5
G0 X32.000 Y6.620
M3 S800
G1 X25.000 Y6.620 F120
M5
G0 X25.000 Y6.800
M3 S800
G1 X32.000 Y6.800 F120
M5
G0 X32.000 Y6.980
M3 S800
G1 X25.000 Y6.980 F120
M5
G0 X25.000 Y7.160
M3 S800
G1 X32.000 Y7.160 F120
M5
G0 X32.000 Y7.340
M3 S800
G1 X25.000 Y7.340 F120
M5
G0 X25.000 Y7.520
M3 S800
G1 X32.000 Y7.520 F120
M5
G0 X32.000 Y7.700
M3 S800
G1 X25.000 Y7.700 F120
M5
G0 X25.000 Y7.880
M3 S800
G1 X32.000 Y7.880 F120
M5
G0 X32.000 Y8.060
M3 S800
G1 X25.000 Y8.060 F120
M5
G0 X25.000 Y8.240
M3 S800
G1 X32.000 Y8.240 F120
M5
G0 X32.000 Y8.420
M3 S800
G1 X25.000 Y8.420 F120
M5
G0 X25.000 Y8.600
M3 S800
G1 X32.000 Y8.600 F120
M5
G0 X32.000 Y8.780
M3 S800
G1 X25.000 Y8.780 F120
M5
G0 X25.000 Y8.960
M3 S800
G1 X32.000 Y8.960 F120
M5
G0 X32.000 Y9.140
M3 S800
G1 X25.000 Y9.140 F120
M5
G0 X25.000 Y9.320
M3 S800
G1 X32.000 Y9.320 F120
M5
G0 X32.000 Y9.500
M3 S800
G1 X25.000 Y9.500 F120
M5
G0 X25.000 Y9.680
M3 S800
G1 X32.000 Y9.680 F120
M5
G0 X32.000 Y9.860
M3 S800
G1 X25.000 Y9.860 F120
M5
G0 X25.000 Y10.040
M3 S800
G1 X32.000 Y10.040 F120
M5
G0 X32.000 Y10.220
M3 S800
G1 X25.000 Y10.220 F120
M5
G0 X25.000 Y10.400
M3 S800
G1 X32.000 Y10.400 F120
M5
G0 X32.000 Y10.580
M3 S800
G1 X25.000 Y10.580 F120
M5
G0 X25.000 Y10.760
M3 S800
G1 X32.000 Y10.760 F120
M5
G0 X32.000 Y10.940
M3 S800
G1 X25.000 Y10.940 F120
M5
G0 X25.000 Y11.120
M3 S800
G1 X32.000 Y11.120 F120
M5
G0 X32.000 Y11.300
M3 S800
G1 X25.000 Y11.300 F120
M5
G0 X25.000 Y11.480
M3 S800
G1 X32.000 Y11.480 F120
M5
G0 X32.000 Y11.660
M3 S800
G1 X25.000 Y11.660 F120
M5
G0 X25.000 Y11.840
M3 S800
G1 X32.000 Y11.840 F120
M5
G0 X25.000 Y5.000
M3 S140
G1 X32.000 Y5.000 F900
M5
M3 S140
G1 X32.000 Y12.000 F900
M5
M3 S140
G1 X25.000 Y12.000 F900
M5
M3 S140
G1 X25.000 Y5.000 F900
M5
(Tile r1c4: F120, S900)
G0 X35.000 Y5.000
M3 S900
G1 X42.000 Y5.000 F120
M5
G0 X42.000 Y5.180
M3 S900
G1 X35.000 Y5.180 F120
M5
G0 X35.000 Y5.360
M3 S900
G1 X42.000 Y5.360 F120
M5
G0 X42.000 Y5.540
M3 S900
G1 X35.000 Y5.540 F120
M5
G0 X35.000 Y5.720
M3 S900
G1 X42.000 Y5.720 F120
M5
G0 X42.000 Y5.900
M3 S900
G1 X35.000 Y5.900 F120
M5
G0 X35.000 Y6.080
M3 S900
G1 X42.000 Y6.080 F120
M5
G0 X42.000 Y6.260
M3 S900
G1 X35.000 Y6.260 F120
M5
G0 X35.000 Y6.440
M3 S900
G1 X42.000 Y6.440 F120
M5
G0 X42.000 Y6.620
M3 S900
G1 X35.000 Y6.620 F120
M5
G0 X35.000 Y6.800
M3 S900
G1 X42.000 Y6.800 F120
M5
G0 X42.000 Y6.980
M3 S900
G1 X35.000 Y6.980 F120
M5
G0 X35.000 Y7.160
M3 S900
G1 X42.000 Y7.160 F120
M5
G0 X42.000 Y7.340
M3 S900
G1 X35.000 Y7.340 F120
M5
G0 X35.000 Y7.520
M3 S900
G1 X42.000 Y7.520 F120
M5
G0 X42.000 Y7.700
M3 S900
G1 X35.000 Y7.700 F120
M5
G0 X35.000 Y7.880
M3 S900
G1 X42.000 Y7.880 F120
M5
G0 X42.000 Y8.060
M3 S900
G1 X35.000 Y8.060 F120
M5
G0 X35.000 Y8.240
M3 S900
G1 X42.000 Y8.240 F120
M5
G0 X42.000 Y8.420
M3 S900
G1 X35.000 Y8.420 F120
M5
G0 X35.000 Y8.600
M3 S900
G1 X42.000 Y8.600 F120
M5
G0 X42.000 Y8.780
M3 S900
G1 X35.000 Y8.780 F120
M5
G0 X35.000 Y8.960
M3 S900
G1 X42.000 Y8.960 F120
M5
G0 X42.000 Y9.140
M3 S900
G1 X35.000 Y9.140 F120
M5
G0 X35.000 Y9.320
M3 S900
G1 X42.000 Y9.320 F120
M5
G0 X42.000 Y9.500
M3 S900
G1 X35.000 Y9.500 F120
M5
G0 X35.000 Y9.680
M3 S900
G1 X42.000 Y9.680 F120
M5
G0 X42.000 Y9.860
M3 S900
G1 X35.000 Y9.860 F120
M5
G0 X35.000 Y10.040
M3 S900
G1 X42.000 Y10.040 F120
M5
G0 X42.000 Y10.220
M3 S900
G1 X35.000 Y10.220 F120
M5
G0 X35.000 Y10.400
M3 S900
G1 X42.000 Y10.400 F120
M5
G0 X42.000 Y10.580
M3 S900
G1 X35.000 Y10.580 F120
M5
G0 X35.000 Y10.760
M3 S900
G1 X42.000 Y10.760 F120
M5
G0 X42.000 Y10.940
M3 S900
G1 X35.000 Y10.940 F120
M5
G0 X35.000 Y11.120
M3 S900
G1 X42.000 Y11.120 F120
M5
G0 X42.000 Y11.300
M3 S900
G1 X35.000 Y11.300 F120
M5
G0 X35.000 Y11.480
M3 S900
G1 X42.000 Y11.480 F120
M5
G0 X42.000 Y11.660
M3 S900
G1 X35.000 Y11.660 F120
M5
G0 X35.000 Y11.840
M3 S900
G1 X42.000 Y11.840 F120
M5
G0 X35.000 Y5.000
M3 S900
G1 X42.000 Y5.000 F120
M5
G0 X42.000 Y5.180
M3 S900
G1 X35.000 Y5.180 F120
M5
G0 X35.000 Y5.360
M3 S900
G1 X42.000 Y5.360 F120
M5
G0 X42.000 Y5.540
M3 S900
G1 X35.000 Y5.540 F120
M5
G0 X35.000 Y5.720
M3 S900
G1 X42.000 Y5.720 F120
M5
G0 X42.000 Y5.900
M3 S900
G1 X35.000 Y5.900 F120
M5
G0 X35.000 Y6.080
M3 S900
G1 X42.000 Y6.080 F120
M5
G0 X42.000 Y6.260
M3 S900
G1 X35.000 Y6.260 F120
M5
G0 X35.000 Y6.440
M3 S900
G1 X42.000 Y6.440 F120
M5
G0 X42.000 Y6.620
M3 S900
G1 X35.000 Y6.620 F120
M5
G0 X35.000 Y6.800
M3 S900
G1 X42.000 Y6.800 F120
M5
G0 X42.000 Y6.980
M3 S900
G1 X35.000 Y6.980 F120
M5
G0 X35.000 Y7.160
M3 S900
G1 X42.000 Y7.160 F120
M5
G0 X42.000 Y7.340
M3 S900
G1 X35.000 Y7.340 F120
M5
G0 X35.000 Y7.520
M3 S900
G1 X42.000 Y7.520 F120
M5
G0 X42.000 Y7.700
M3 S900
G1 X35.000 Y7.700 F120
M5
G0 X35.000 Y7.880
M3 S900
G1 X42.000 Y7.880 F120
M5
G0 X42.000 Y8.060
M3 S900
G1 X35.000 Y8.060 F120
M5
G0 X35.000 Y8.240
M3 S900
G1 X42.000 Y8.240 F120
M5
G0 X42.000 Y8.420
M3 S900
G1 X35.000 Y8.420 F120
M5
G0 X35.000 Y8.600
M3 S900
G1 X42.000 Y8.600 F120
M5
G0 X42.000 Y8.780
M3 S900
G1 X35.000 Y8.780 F120
M5
G0 X35.000 Y8.960
M3 S900
G1 X42.000 Y8.960 F120
M5
G0 X42.000 Y9.140
M3 S900
G1 X35.000 Y9.140 F120
M5
G0 X35.000 Y9.320
M3 S900
G1 X42.000 Y9.320 F120
M5
G0 X42.000 Y9.500
M3 S900
G1 X35.000 Y9.500 F120
M5
G0 X35.000 Y9.680
M3 S900
G1 X42.000 Y9.680 F120
M5
G0 X42.000 Y9.860
M3 S900
G1 X35.000 Y9.860 F120
M5
G0 X35.000 Y10.040
M3 S900
G1 X42.000 Y10.040 F120
M5
G0 X42.000 Y10.220
M3 S900
G1 X35.000 Y10.220 F120
M5
G0 X35.000 Y10.400
M3 S900
G1 X42.000 Y10.400 F120
M5
G0 X42.000 Y10.580
M3 S900
G1 X35.000 Y10.580 F120
M5
G0 X35.000 Y10.760
M3 S900
G1 X42.000 Y10.760 F120
M5
G0 X42.000 Y10.940
M3 S900
G1 X35.000 Y10.940 F120
M5
G0 X35.000 Y11.120
M3 S900
G1 X42.000 Y11.120 F120
M5
G0 X42.000 Y11.300
M3 S900
G1 X35.000 Y11.300 F120
M5
G0 X35.000 Y11.480
M3 S900
G1 X42.000 Y11.480 F120
M5
G0 X42.000 Y11.660
M3 S900
G1 X35.000 Y11.660 F120
M5
G0 X35.000 Y11.840
M3 S900
G1 X42.000 Y11.840 F120
M5
G0 X35.000 Y5.000
M3 S140
G1 X42.000 Y5.000 F900
M5
M3 S140
G1 X42.000 Y12.000 F900
M5
M3 S140
G1 X35.000 Y12.000 F900
M5
M3 S140
G1 X35.000 Y5.000 F900
M5
(Tile r1c5: F120, S1000)
G0 X45.000 Y5.000
M3 S1000
G1 X52.000 Y5.000 F120
M5
G0 X52.000 Y5.180
M3 S1000
G1 X45.000 Y5.180 F120
M5
G0 X45.000 Y5.360
M3 S1000
G1 X52.000 Y5.360 F120
M5
G0 X52.000 Y5.540
M3 S1000
G1 X45.000 Y5.540 F120
M5
G0 X45.000 Y5.720
M3 S1000
G1 X52.000 Y5.720 F120
M5
G0 X52.000 Y5.900
M3 S1000
G1 X45.000 Y5.900 F120
M5
G0 X45.000 Y6.080
M3 S1000
G1 X52.000 Y6.080 F120
M5
G0 X52.000 Y6.260
M3 S1000
G1 X45.000 Y6.260 F120
M5
G0 X45.000 Y6.440
M3 S1000
G1 X52.000 Y6.440 F120
M5
G0 X52.000 Y6.620
M3 S1000
G1 X45.000 Y6.620 F120
M5
G0 X45.000 Y6.800
M3 S1000
G1 X52.000 Y6.800 F120
M5
G0 X52.000 Y6.980
M3 S1000
G1 X45.000 Y6.980 F120
M5
G0 X45.000 Y7.160
M3 S1000
G1 X52.000 Y7.160 F120
M5
G0 X52.000 Y7.340
M3 S1000
G1 X45.000 Y7.340 F120
M5
G0 X45.000 Y7.520
M3 S1000
G1 X52.000 Y7.520 F120
M5
G0 X52.000 Y7.700
M3 S1000
G1 X45.000 Y7.700 F120
M5
G0 X45.000 Y7.880
M3 S1000
G1 X52.000 Y7.880 F120
M5
G0 X52.000 Y8.060
M3 S1000
G1 X45.000 Y8.060 F120
M5
G0 X45.000 Y8.240
M3 S1000
G1 X52.000 Y8.240 F120
M5
G0 X52.000 Y8.420
M3 S1000
G1 X45.000 Y8.420 F120
M5
G0 X45.000 Y8.600
M3 S1000
G1 X52.000 Y8.600 F120
M5
G0 X52.000 Y8.780
M3 S1000
G1 X45.000 Y8.780 F120
M5
G0 X45.000 Y8.960
M3 S1000
G1 X52.000 Y8.960 F120
M5
G0 X52.000 Y9.140
M3 S1000
G1 X45.000 Y9.140 F120
M5
G0 X45.000 Y9.320
M3 S1000
G1 X52.000 Y9.320 F120
M5
G0 X52.000 Y9.500
M3 S1000
G1 X45.000 Y9.500 F120
M5
G0 X45.000 Y9.680
M3 S1000
G1 X52.000 Y9.680 F120
M5
G0 X52.000 Y9.860
M3 S1000
G1 X45.000 Y9.860 F120
M5
G0 X45.000 Y10.040
M3 S1000
G1 X52.000 Y10.040 F120
M5
G0 X52.000 Y10.220
M3 S1000
G1 X45.000 Y10.220 F120
M5
G0 X45.000 Y10.400
M3 S1000
G1 X52.000 Y10.400 F120
M5
G0 X52.000 Y10.580
M3 S1000
G1 X45.000 Y10.580 F120
M5
G0 X45.000 Y10.760
M3 S1000
G1 X52.000 Y10.760 F120
M5
G0 X52.000 Y10.940
M3 S1000
G1 X45.000 Y10.940 F120
M5
G0 X45.000 Y11.120
M3 S1000
G1 X52.000 Y11.120 F120
M5
G0 X52.000 Y11.300
M3 S1000
G1 X45.000 Y11.300 F120
M5
G0 X45.000 Y11.480
M3 S1000
G1 X52.000 Y11.480 F120
M5
G0 X52.000 Y11.660
M3 S1000
G1 X45.000 Y11.660 F120
M5
G0 X45.000 Y11.840
M3 S1000
G1 X52.000 Y11.840 F120
M5
G0 X45.000 Y5.000
M3 S1000
G1 X52.000 Y5.000 F120
M5
G0 X52.000 Y5.180
M3 S1000
G1 X45.000 Y5.180 F120
M5
G0 X45.000 Y5.360
M3 S1000
G1 X52.000 Y5.360 F120
M5
G0 X52.000 Y5.540
M3 S1000
G1 X45.000 Y5.540 F120
M5
G0 X45.000 Y5.720
M3 S1000
G1 X52.000 Y5.720 F120
M5
G0 X52.000 Y5.900
M3 S1000
G1 X45.000 Y5.900 F120
M5
G0 X45.000 Y6.080
M3 S1000
G1 X52.000 Y6.080 F120
M5
G0 X52.000 Y6.260
M3 S1000
G1 X45.000 Y6.260 F120
M5
G0 X45.000 Y6.440
M3 S1000
G1 X52.000 Y6.440 F120
M5
G0 X52.000 Y6.620
M3 S1000
G1 X45.000 Y6.620 F120
M5
G0 X45.000 Y6.800
M3 S1000
G1 X52.000 Y6.800 F120
M5
G0 X52.000 Y6.980
M3 S1000
G1 X45.000 Y6.980 F120
M5
G0 X45.000 Y7.160
M3 S1000
G1 X52.000 Y7.160 F120
M5
G0 X52.000 Y7.340
M3 S1000
G1 X45.000 Y7.340 F120
M5
G0 X45.000 Y7.520
M3 S1000
G1 X52.000 Y7.520 F120
M5
G0 X52.000 Y7.700
M3 S1000
G1 X45.000 Y7.700 F120
M5
G0 X45.000 Y7.880
M3 S1000
G1 X52.000 Y7.880 F120
M5
G0 X52.000 Y8.060
M3 S1000
G1 X45.000 Y8.060 F120
M5
G0 X45.000 Y8.240
M3 S1000
G1 X52.000 Y8.240 F120
M5
G0 X52.000 Y8.420
M3 S1000
G1 X45.000 Y8.420 F120
M5
G0 X45.000 Y8.600
M3 S1000
G1 X52.000 Y8.600 F120
M5
G0 X52.000 Y8.780
M3 S1000
G1 X45.000 Y8.780 F120
M5
G0 X45.000 Y8.960
M3 S1000
G1 X52.000 Y8.960 F120
M5
G0 X52.000 Y9.140
M3 S1000
G1 X45.000 Y9.140 F120
M5
G0 X45.000 Y9.320
M3 S1000
G1 X52.000 Y9.320 F120
M5
G0 X52.000 Y9.500
M3 S1000
G1 X45.000 Y9.500 F120
M5
G0 X45.000 Y9.680
M3 S1000
G1 X52.000 Y9.680 F120
M5
G0 X52.000 Y9.860
M3 S1000
G1 X45.000 Y9.860 F120
M5
G0 X45.000 Y10.040
M3 S1000
G1 X52.000 Y10.040 F120
M5
G0 X52.000 Y10.220
M3 S1000
G1 X45.000 Y10.220 F120
M5
G0 X45.000 Y10.400
M3 S1000
G1 X52.000 Y10.400 F120
M5
G0 X52.000 Y10.580
M3 S1000
G1 X45.000 Y10.580 F120
M5
G0 X45.000 Y10.760
M3 S1000
G1 X52.000 Y10.760 F120
M5
G0 X52.000 Y10.940
M3 S1000
G1 X45.000 Y10.940 F120
M5
G0 X45.000 Y11.120
M3 S1000
G1 X52.000 Y11.120 F120
M5
G0 X52.000 Y11.300
M3 S1000
G1 X45.000 Y11.300 F120
M5
G0 X45.000 Y11.480
M3 S1000
G1 X52.000 Y11.480 F120
M5
G0 X52.000 Y11.660
M3 S1000
G1 X45.000 Y11.660 F120
M5
G0 X45.000 Y11.840
M3 S1000
G1 X52.000 Y11.840 F120
M5
G0 X45.000 Y5.000
M3 S140
G1 X52.000 Y5.000 F900
M5
M3 S140
G1 X52.000 Y12.000 F900
M5
M3 S140
G1 X45.000 Y12.000 F900
M5
M3 S140
G1 X45.000 Y5.000 F900
M5
(Tile r2c1: F180, S500)
G0 X5.000 Y15.000
M3 S500
G1 X12.000 Y15.000 F180
M5
G0 X12.000 Y15.180
M3 S500
G1 X5.000 Y15.180 F180
M5
G0 X5.000 Y15.360
M3 S500
G1 X12.000 Y15.360 F180
M5
G0 X12.000 Y15.540
M3 S500
G1 X5.000 Y15.540 F180
M5
G0 X5.000 Y15.720
M3 S500
G1 X12.000 Y15.720 F180
M5
G0 X12.000 Y15.900
M3 S500
G1 X5.000 Y15.900 F180
M5
G0 X5.000 Y16.080
M3 S500
G1 X12.000 Y16.080 F180
M5
G0 X12.000 Y16.260
M3 S500
G1 X5.000 Y16.260 F180
M5
G0 X5.000 Y16.440
M3 S500
G1 X12.000 Y16.440 F180
M5
G0 X12.000 Y16.620
M3 S500
G1 X5.000 Y16.620 F180
M5
G0 X5.000 Y16.800
M3 S500
G1 X12.000 Y16.800 F180
M5
G0 X12.000 Y16.980
M3 S500
G1 X5.000 Y16.980 F180
M5
G0 X5.000 Y17.160
M3 S500
G1 X12.000 Y17.160 F180
M5
G0 X12.000 Y17.340
M3 S500
G1 X5.000 Y17.340 F180
M5
G0 X5.000 Y17.520
M3 S500
G1 X12.000 Y17.520 F180
M5
G0 X12.000 Y17.700
M3 S500
G1 X5.000 Y17.700 F180
M5
G0 X5.000 Y17.880
M3 S500
G1 X12.000 Y17.880 F180
M5
G0 X12.000 Y18.060
M3 S500
G1 X5.000 Y18.060 F180
M5
G0 X5.000 Y18.240
M3 S500
G1 X12.000 Y18.240 F180
M5
G0 X12.000 Y18.420
M3 S500
G1 X5.000 Y18.420 F180
M5
G0 X5.000 Y18.600
M3 S500
G1 X12.000 Y18.600 F180
M5
G0 X12.000 Y18.780
M3 S500
G1 X5.000 Y18.780 F180
M5
G0 X5.000 Y18.960
M3 S500
G1 X12.000 Y18.960 F180
M5
G0 X12.000 Y19.140
M3 S500
G1 X5.000 Y19.140 F180
M5
G0 X5.000 Y19.320
M3 S500
G1 X12.000 Y19.320 F180
M5
G0 X12.000 Y19.500
M3 S500
G1 X5.000 Y19.500 F180
M5
G0 X5.000 Y19.680
M3 S500
G1 X12.000 Y19.680 F180
M5
G0 X12.000 Y19.860
M3 S500
G1 X5.000 Y19.860 F180
M5
G0 X5.000 Y20.040
M3 S500
G1 X12.000 Y20.040 F180
M5
G0 X12.000 Y20.220
M3 S500
G1 X5.000 Y20.220 F180
M5
G0 X5.000 Y20.400
M3 S500
G1 X12.000 Y20.400 F180
M5
G0 X12.000 Y20.580
M3 S500
G1 X5.000 Y20.580 F180
M5
G0 X5.000 Y20.760
M3 S500
G1 X12.000 Y20.760 F180
M5
G0 X12.000 Y20.940
M3 S500
G1 X5.000 Y20.940 F180
M5
G0 X5.000 Y21.120
M3 S500
G1 X12.000 Y21.120 F180
M5
G0 X12.000 Y21.300
M3 S500
G1 X5.000 Y21.300 F180
M5
G0 X5.000 Y21.480
M3 S500
G1 X12.000 Y21.480 F180
M5
G0 X12.000 Y21.660
M3 S500
G1 X5.000 Y21.660 F180
M5
G0 X5.000 Y21.840
M3 S500
G1 X12.000 Y21.840 F180
M5
G0 X5.000 Y15.000
M3 S500
G1 X12.000 Y15.000 F180
M5
G0 X12.000 Y15.180
M3 S500
G1 X5.000 Y15.180 F180
M5
G0 X5.000 Y15.360
M3 S500
G1 X12.000 Y15.360 F180
M5
G0 X12.000 Y15.540
M3 S500
G1 X5.000 Y15.540 F180
M5
G0 X5.000 Y15.720
M3 S500
G1 X12.000 Y15.720 F180
M5
G0 X12.000 Y15.900
M3 S500
G1 X5.000 Y15.900 F180
M5
G0 X5.000 Y16.080
M3 S500
G1 X12.000 Y16.080 F180
M5
G0 X12.000 Y16.260
M3 S500
G1 X5.000 Y16.260 F180
M5
G0 X5.000 Y16.440
M3 S500
G1 X12.000 Y16.440 F180
M5
G0 X12.000 Y16.620
M3 S500
G1 X5.000 Y16.620 F180
M5
G0 X5.000 Y16.800
M3 S500
G1 X12.000 Y16.800 F180
M5
G0 X12.000 Y16.980
M3 S500
G1 X5.000 Y16.980 F180
M5
G0 X5.000 Y17.160
M3 S500
G1 X12.000 Y17.160 F180
M5
G0 X12.000 Y17.340
M3 S500
G1 X5.000 Y17.340 F180
M5
G0 X5.000 Y17.520
M3 S500
G1 X12.000 Y17.520 F180
M5
G0 X12.000 Y17.700
M3 S500
G1 X5.000 Y17.700 F180
M5
G0 X5.000 Y17.880
M3 S500
G1 X12.000 Y17.880 F180
M5
G0 X12.000 Y18.060
M3 S500
G1 X5.000 Y18.060 F180
M5
G0 X5.000 Y18.240
M3 S500
G1 X12.000 Y18.240 F180
M5
G0 X12.000 Y18.420
M3 S500
G1 X5.000 Y18.420 F180
M5
G0 X5.000 Y18.600
M3 S500
G1 X12.000 Y18.600 F180
M5
G0 X12.000 Y18.780
M3 S500
G1 X5.000 Y18.780 F180
M5
G0 X5.000 Y18.960
M3 S500
G1 X12.000 Y18.960 F180
M5
G0 X12.000 Y19.140
M3 S500
G1 X5.000 Y19.140 F180
M5
G0 X5.000 Y19.320
M3 S500
G1 X12.000 Y19.320 F180
M5
G0 X12.000 Y19.500
M3 S500
G1 X5.000 Y19.500 F180
M5
G0 X5.000 Y19.680
M3 S500
G1 X12.000 Y19.680 F180
M5
G0 X12.000 Y19.860
M3 S500
G1 X5.000 Y19.860 F180
M5
G0 X5.000 Y20.040
M3 S500
G1 X12.000 Y20.040 F180
M5
G0 X12.000 Y20.220
M3 S500
G1 X5.000 Y20.220 F180
M5
G0 X5.000 Y20.400
M3 S500
G1 X12.000 Y20.400 F180
M5
G0 X12.000 Y20.580
M3 S500
G1 X5.000 Y20.580 F180
M5
G0 X5.000 Y20.760
M3 S500
G1 X12.000 Y20.760 F180
M5
G0 X12.000 Y20.940
M3 S500
G1 X5.000 Y20.940 F180
M5
G0 X5.000 Y21.120
M3 S500
G1 X12.000 Y21.120 F180
M5
G0 X12.000 Y21.300
M3 S500
G1 X5.000 Y21.300 F180
M5
G0 X5.000 Y21.480
M3 S500
G1 X12.000 Y21.480 F180
M5
G0 X12.000 Y21.660
M3 S500
G1 X5.000 Y21.660 F180
M5
G0 X5.000 Y21.840
M3 S500
G1 X12.000 Y21.840 F180
M5
G0 X5.000 Y15.000
M3 S140
G1 X12.000 Y15.000 F900
M5
M3 S140
G1 X12.000 Y22.000 F900
M5
M3 S140
G1 X5.000 Y22.000 F900
M5
M3 S140
G1 X5.000 Y15.000 F900
M5
(Tile r2c2: F180, S650)
G0 X15.000 Y15.000
M3 S650
G1 X22.000 Y15.000 F180
M5
G0 X22.000 Y15.180
M3 S650
G1 X15.000 Y15.180 F180
M5
G0 X15.000 Y15.360
M3 S650
G1 X22.000 Y15.360 F180
M5
G0 X22.000 Y15.540
M3 S650
G1 X15.000 Y15.540 F180
M5
G0 X15.000 Y15.720
M3 S650
G1 X22.000 Y15.720 F180
M5
G0 X22.000 Y15.900
M3 S650
G1 X15.000 Y15.900 F180
M5
G0 X15.000 Y16.080
M3 S650
G1 X22.000 Y16.080 F180
M5
G0 X22.000 Y16.260
M3 S650
G1 X15.000 Y16.260 F180
M5
G0 X15.000 Y16.440
M3 S650
G1 X22.000 Y16.440 F180
M5
G0 X22.000 Y16.620
M3 S650
G1 X15.000 Y16.620 F180
M5
G0 X15.000 Y16.800
M3 S650
G1 X22.000 Y16.800 F180
M5
G0 X22.000 Y16.980
M3 S650
G1 X15.000 Y16.980 F180
M5
G0 X15.000 Y17.160
M3 S650
G1 X22.000 Y17.160 F180
M5
G0 X22.000 Y17.340
M3 S650
G1 X15.000 Y17.340 F180
M5
G0 X15.000 Y17.520
M3 S650
G1 X22.000 Y17.520 F180
M5
G0 X22.000 Y17.700
M3 S650
G1 X15.000 Y17.700 F180
M5
G0 X15.000 Y17.880
M3 S650
G1 X22.000 Y17.880 F180
M5
G0 X22.000 Y18.060
M3 S650
G1 X15.000 Y18.060 F180
M5
G0 X15.000 Y18.240
M3 S650
G1 X22.000 Y18.240 F180
M5
G0 X22.000 Y18.420
M3 S650
G1 X15.000 Y18.420 F180
M5
G0 X15.000 Y18.600
M3 S650
G1 X22.000 Y18.600 F180
M5
G0 X22.000 Y18.780
M3 S650
G1 X15.000 Y18.780 F180
M5
G0 X15.000 Y18.960
M3 S650
G1 X22.000 Y18.960 F180
M5
G0 X22.000 Y19.140
M3 S650
G1 X15.000 Y19.140 F180
M5
G0 X15.000 Y19.320
M3 S650
G1 X22.000 Y19.320 F180
M5
G0 X22.000 Y19.500
M3 S650
G1 X15.000 Y19.500 F180
M5
G0 X15.000 Y19.680
M3 S650
G1 X22.000 Y19.680 F180
M5
G0 X22.000 Y19.860
M3 S650
G1 X15.000 Y19.860 F180
M5
G0 X15.000 Y20.040
M3 S650
G1 X22.000 Y20.040 F180
M5
G0 X22.000 Y20.220
M3 S650
G1 X15.000 Y20.220 F180
M5
G0 X15.000 Y20.400
M3 S650
G1 X22.000 Y20.400 F180
M5
G0 X22.000 Y20.580
M3 S650
G1 X15.000 Y20.580 F180
M5
G0 X15.000 Y20.760
M3 S650
G1 X22.000 Y20.760 F180
M5
G0 X22.000 Y20.940
M3 S650
G1 X15.000 Y20.940 F180
M5
G0 X15.000 Y21.120
M3 S650
G1 X22.000 Y21.120 F180
M5
G0 X22.000 Y21.300
M3 S650
G1 X15.000 Y21.300 F180
M5
G0 X15.000 Y21.480
M3 S650
G1 X22.000 Y21.480 F180
M5
G0 X22.000 Y21.660
M3 S650
G1 X15.000 Y21.660 F180
M5
G0 X15.000 Y21.840
M3 S650
G1 X22.000 Y21.840 F180
M5
G0 X15.000 Y15.000
M3 S650
G1 X22.000 Y15.000 F180
M5
G0 X22.000 Y15.180
M3 S650
G1 X15.000 Y15.180 F180
M5
G0 X15.000 Y15.360
M3 S650
G1 X22.000 Y15.360 F180
M5
G0 X22.000 Y15.540
M3 S650
G1 X15.000 Y15.540 F180
M5
G0 X15.000 Y15.720
M3 S650
G1 X22.000 Y15.720 F180
M5
G0 X22.000 Y15.900
M3 S650
G1 X15.000 Y15.900 F180
M5
G0 X15.000 Y16.080
M3 S650
G1 X22.000 Y16.080 F180
M5
G0 X22.000 Y16.260
M3 S650
G1 X15.000 Y16.260 F180
M5
G0 X15.000 Y16.440
M3 S650
G1 X22.000 Y16.440 F180
M5
G0 X22.000 Y16.620
M3 S650
G1 X15.000 Y16.620 F180
M5
G0 X15.000 Y16.800
M3 S650
G1 X22.000 Y16.800 F180
M5
G0 X22.000 Y16.980
M3 S650
G1 X15.000 Y16.980 F180
M5
G0 X15.000 Y17.160
M3 S650
G1 X22.000 Y17.160 F180
M5
G0 X22.000 Y17.340
M3 S650
G1 X15.000 Y17.340 F180
M5
G0 X15.000 Y17.520
M3 S650
G1 X22.000 Y17.520 F180
M5
G0 X22.000 Y17.700
M3 S650
G1 X15.000 Y17.700 F180
M5
G0 X15.000 Y17.880
M3 S650
G1 X22.000 Y17.880 F180
M5
G0 X22.000 Y18.060
M3 S650
G1 X15.000 Y18.060 F180
M5
G0 X15.000 Y18.240
M3 S650
G1 X22.000 Y18.240 F180
M5
G0 X22.000 Y18.420
M3 S650
G1 X15.000 Y18.420 F180
M5
G0 X15.000 Y18.600
M3 S650
G1 X22.000 Y18.600 F180
M5
G0 X22.000 Y18.780
M3 S650
G1 X15.000 Y18.780 F180
M5
G0 X15.000 Y18.960
M3 S650
G1 X22.000 Y18.960 F180
M5
G0 X22.000 Y19.140
M3 S650
G1 X15.000 Y19.140 F180
M5
G0 X15.000 Y19.320
M3 S650
G1 X22.000 Y19.320 F180
M5
G0 X22.000 Y19.500
M3 S650
G1 X15.000 Y19.500 F180
M5
G0 X15.000 Y19.680
M3 S650
G1 X22.000 Y19.680 F180
M5
G0 X22.000 Y19.860
M3 S650
G1 X15.000 Y19.860 F180
M5
G0 X15.000 Y20.040
M3 S650
G1 X22.000 Y20.040 F180
M5
G0 X22.000 Y20.220
M3 S650
G1 X15.000 Y20.220 F180
M5
G0 X15.000 Y20.400
M3 S650
G1 X22.000 Y20.400 F180
M5
G0 X22.000 Y20.580
M3 S650
G1 X15.000 Y20.580 F180
M5
G0 X15.000 Y20.760
M3 S650
G1 X22.000 Y20.760 F180
M5
G0 X22.000 Y20.940
M3 S650
G1 X15.000 Y20.940 F180
M5
G0 X15.000 Y21.120
M3 S650
G1 X22.000 Y21.120 F180
M5
G0 X22.000 Y21.300
M3 S650
G1 X15.000 Y21.300 F180
M5
G0 X15.000 Y21.480
M3 S650
G1 X22.000 Y21.480 F180
M5
G0 X22.000 Y21.660
M3 S650
G1 X15.000 Y21.660 F180
M5
G0 X15.000 Y21.840
M3 S650
G1 X22.000 Y21.840 F180
M5
G0 X15.000 Y15.000
M3 S140
G1 X22.000 Y15.000 F900
M5
M3 S140
G1 X22.000 Y22.000 F900
M5
M3 S140
G1 X15.000 Y22.000 F900
M5
M3 S140
G1 X15.000 Y15.000 F900
M5
(Tile r2c3: F180, S800)
G0 X25.000 Y15.000
M3 S800
G1 X32.000 Y15.000 F180
M5
G0 X32.000 Y15.180
M3 S800
G1 X25.000 Y15.180 F180
M5
G0 X25.000 Y15.360
M3 S800
G1 X32.000 Y15.360 F180
M5
G0 X32.000 Y15.540
M3 S800
G1 X25.000 Y15.540 F180
M5
G0 X25.000 Y15.720
M3 S800
G1 X32.000 Y15.720 F180
M5
G0 X32.000 Y15.900
M3 S800
G1 X25.000 Y15.900 F180
M5
G0 X25.000 Y16.080
M3 S800
G1 X32.000 Y16.080 F180
M5
G0 X32.000 Y16.260
M3 S800
G1 X25.000 Y16.260 F180
M5
G0 X25.000 Y16.440
M3 S800
G1 X32.000 Y16.440 F180
M5
G0 X32.000 Y16.620
M3 S800
G1 X25.000 Y16.620 F180
M5
G0 X25.000 Y16.800
M3 S800
G1 X32.000 Y16.800 F180
M5
G0 X32.000 Y16.980
M3 S800
G1 X25.000 Y16.980 F180
M5
G0 X25.000 Y17.160
M3 S800
G1 X32.000 Y17.160 F180
M5
G0 X32.000 Y17.340
M3 S800
G1 X25.000 Y17.340 F180
M5
G0 X25.000 Y17.520
M3 S800
G1 X32.000 Y17.520 F180
M5
G0 X32.000 Y17.700
M3 S800
G1 X25.000 Y17.700 F180
M5
G0 X25.000 Y17.880
M3 S800
G1 X32.000 Y17.880 F180
M5
G0 X32.000 Y18.060
M3 S800
G1 X25.000 Y18.060 F180
M5
G0 X25.000 Y18.240
M3 S800
G1 X32.000 Y18.240 F180
M5
G0 X32.000 Y18.420
M3 S800
G1 X25.000 Y18.420 F180
M5
G0 X25.000 Y18.600
M3 S800
G1 X32.000 Y18.600 F180
M5
G0 X32.000 Y18.780
M3 S800
G1 X25.000 Y18.780 F180
M5
G0 X25.000 Y18.960
M3 S800
G1 X32.000 Y18.960 F180
M5
G0 X32.000 Y19.140
M3 S800
G1 X25.000 Y19.140 F180
M5
G0 X25.000 Y19.320
M3 S800
G1 X32.000 Y19.320 F180
M5
G0 X32.000 Y19.500
M3 S800
G1 X25.000 Y19.500 F180
M5
G0 X25.000 Y19.680
M3 S800
G1 X32.000 Y19.680 F180
M5
G0 X32.000 Y19.860
M3 S800
G1 X25.000 Y19.860 F180
M5
G0 X25.000 Y20.040
M3 S800
G1 X32.000 Y20.040 F180
M5
G0 X32.000 Y20.220
M3 S800
G1 X25.000 Y20.220 F180
M5
G0 X25.000 Y20.400
M3 S800
G1 X32.000 Y20.400 F180
M5
G0 X32.000 Y20.580
M3 S800
G1 X25.000 Y20.580 F180
M5
G0 X25.000 Y20.760
M3 S800
G1 X32.000 Y20.760 F180
M5
G0 X32.000 Y20.940
M3 S800
G1 X25.000 Y20.940 F180
M5
G0 X25.000 Y21.120
M3 S800
G1 X32.000 Y21.120 F180
M5
G0 X32.000 Y21.300
M3 S800
G1 X25.000 Y21.300 F180
M5
G0 X25.000 Y21.480
M3 S800
G1 X32.000 Y21.480 F180
M5
G0 X32.000 Y21.660
M3 S800
G1 X25.000 Y21.660 F180
M5
G0 X25.000 Y21.840
M3 S800
G1 X32.000 Y21.840 F180
M5
G0 X25.000 Y15.000
M3 S800
G1 X32.000 Y15.000 F180
M5
G0 X32.000 Y15.180
M3 S800
G1 X25.000 Y15.180 F180
M5
G0 X25.000 Y15.360
M3 S800
G1 X32.000 Y15.360 F180
M5
G0 X32.000 Y15.540
M3 S800
G1 X25.000 Y15.540 F180
M5
G0 X25.000 Y15.720
M3 S800
G1 X32.000 Y15.720 F180
M5
G0 X32.000 Y15.900
M3 S800
G1 X25.000 Y15.900 F180
M5
G0 X25.000 Y16.080
M3 S800
G1 X32.000 Y16.080 F180
M5
G0 X32.000 Y16.260
M3 S800
G1 X25.000 Y16.260 F180
M5
G0 X25.000 Y16.440
M3 S800
G1 X32.000 Y16.440 F180
M5
G0 X32.000 Y16.620
M3 S800
G1 X25.000 Y16.620 F180
M5
G0 X25.000 Y16.800
M3 S800
G1 X32.000 Y16.800 F180
M5
G0 X32.000 Y16.980
M3 S800
G1 X25.000 Y16.980 F180
M5
G0 X25.000 Y17.160
M3 S800
G1 X32.000 Y17.160 F180
M5
G0 X32.000 Y17.340
M3 S800
G1 X25.000 Y17.340 F180
M5
G0 X25.000 Y17.520
M3 S800
G1 X32.000 Y17.520 F180
M5
G0 X32.000 Y17.700
M3 S800
G1 X25.000 Y17.700 F180
M5
G0 X25.000 Y17.880
M3 S800
G1 X32.000 Y17.880 F180
M5
G0 X32.000 Y18.060
M3 S800
G1 X25.000 Y18.060 F180
M5
G0 X25.000 Y18.240
M3 S800
G1 X32.000 Y18.240 F180
M5
G0 X32.000 Y18.420
M3 S800
G1 X25.000 Y18.420 F180
M5
G0 X25.000 Y18.600
M3 S800
G1 X32.000 Y18.600 F180
M5
G0 X32.000 Y18.780
M3 S800
G1 X25.000 Y18.780 F180
M5
G0 X25.000 Y18.960
M3 S800
G1 X32.000 Y18.960 F180
M5
G0 X32.000 Y19.140
M3 S800
G1 X25.000 Y19.140 F180
M5
G0 X25.000 Y19.320
M3 S800
G1 X32.000 Y19.320 F180
M5
G0 X32.000 Y19.500
M3 S800
G1 X25.000 Y19.500 F180
M5
G0 X25.000 Y19.680
M3 S800
G1 X32.000 Y19.680 F180
M5
G0 X32.000 Y19.860
M3 S800
G1 X25.000 Y19.860 F180
M5
G0 X25.000 Y20.040
M3 S800
G1 X32.000 Y20.040 F180
M5
G0 X32.000 Y20.220
M3 S800
G1 X25.000 Y20.220 F180
M5
G0 X25.000 Y20.400
M3 S800
G1 X32.000 Y20.400 F180
M5
G0 X32.000 Y20.580
M3 S800
G1 X25.000 Y20.580 F180
M5
G0 X25.000 Y20.760
M3 S800
G1 X32.000 Y20.760 F180
M5
G0 X32.000 Y20.940
M3 S800
G1 X25.000 Y20.940 F180
M5
G0 X25.000 Y21.120
M3 S800
G1 X32.000 Y21.120 F180
M5
G0 X32.000 Y21.300
M3 S800
G1 X25.000 Y21.300 F180
M5
G0 X25.000 Y21.480
M3 S800
G1 X32.000 Y21.480 F180
M5
G0 X32.000 Y21.660
M3 S800
G1 X25.000 Y21.660 F180
M5
G0 X25.000 Y21.840
M3 S800
G1 X32.000 Y21.840 F180
M5
G0 X25.000 Y15.000
M3 S140
G1 X32.000 Y15.000 F900
M5
M3 S140
G1 X32.000 Y22.000 F900
M5
M3 S140
G1 X25.000 Y22.000 F900
M5
M3 S140
G1 X25.000 Y15.000 F900
M5
(Tile r2c4: F180, S900)
G0 X35.000 Y15.000
M3 S900
G1 X42.000 Y15.000 F180
M5
G0 X42.000 Y15.180
M3 S900
G1 X35.000 Y15.180 F180
M5
G0 X35.000 Y15.360
M3 S900
G1 X42.000 Y15.360 F180
M5
G0 X42.000 Y15.540
M3 S900
G1 X35.000 Y15.540 F180
M5
G0 X35.000 Y15.720
M3 S900
G1 X42.000 Y15.720 F180
M5
G0 X42.000 Y15.900
M3 S900
G1 X35.000 Y15.900 F180
M5
G0 X35.000 Y16.080
M3 S900
G1 X42.000 Y16.080 F180
M5
G0 X42.000 Y16.260
M3 S900
G1 X35.000 Y16.260 F180
M5
G0 X35.000 Y16.440
M3 S900
G1 X42.000 Y16.440 F180
M5
G0 X42.000 Y16.620
M3 S900
G1 X35.000 Y16.620 F180
M5
G0 X35.000 Y16.800
M3 S900
G1 X42.000 Y16.800 F180
M5
G0 X42.000 Y16.980
M3 S900
G1 X35.000 Y16.980 F180
M5
G0 X35.000 Y17.160
M3 S900
G1 X42.000 Y17.160 F180
M5
G0 X42.000 Y17.340
M3 S900
G1 X35.000 Y17.340 F180
M5
G0 X35.000 Y17.520
M3 S900
G1 X42.000 Y17.520 F180
M5
G0 X42.000 Y17.700
M3 S900
G1 X35.000 Y17.700 F180
M5
G0 X35.000 Y17.880
M3 S900
G1 X42.000 Y17.880 F180
M5
G0 X42.000 Y18.060
M3 S900
G1 X35.000 Y18.060 F180
M5
G0 X35.000 Y18.240
M3 S900
G1 X42.000 Y18.240 F180
M5
G0 X42.000 Y18.420
M3 S900
G1 X35.000 Y18.420 F180
M5
G0 X35.000 Y18.600
M3 S900
G1 X42.000 Y18.600 F180
M5
G0 X42.000 Y18.780
M3 S900
G1 X35.000 Y18.780 F180
M5
G0 X35.000 Y18.960
M3 S900
G1 X42.000 Y18.960 F180
M5
G0 X42.000 Y19.140
M3 S900
G1 X35.000 Y19.140 F180
M5
G0 X35.000 Y19.320
M3 S900
G1 X42.000 Y19.320 F180
M5
G0 X42.000 Y19.500
M3 S900
G1 X35.000 Y19.500 F180
M5
G0 X35.000 Y19.680
M3 S900
G1 X42.000 Y19.680 F180
M5
G0 X42.000 Y19.860
M3 S900
G1 X35.000 Y19.860 F180
M5
G0 X35.000 Y20.040
M3 S900
G1 X42.000 Y20.040 F180
M5
G0 X42.000 Y20.220
M3 S900
G1 X35.000 Y20.220 F180
M5
G0 X35.000 Y20.400
M3 S900
G1 X42.000 Y20.400 F180
M5
G0 X42.000 Y20.580
M3 S900
G1 X35.000 Y20.580 F180
M5
G0 X35.000 Y20.760
M3 S900
G1 X42.000 Y20.760 F180
M5
G0 X42.000 Y20.940
M3 S900
G1 X35.000 Y20.940 F180
M5
G0 X35.000 Y21.120
M3 S900
G1 X42.000 Y21.120 F180
M5
G0 X42.000 Y21.300
M3 S900
G1 X35.000 Y21.300 F180
M5
G0 X35.000 Y21.480
M3 S900
G1 X42.000 Y21.480 F180
M5
G0 X42.000 Y21.660
M3 S900
G1 X35.000 Y21.660 F180
M5
G0 X35.000 Y21.840
M3 S900
G1 X42.000 Y21.840 F180
M5
G0 X35.000 Y15.000
M3 S900
G1 X42.000 Y15.000 F180
M5
G0 X42.000 Y15.180
M3 S900
G1 X35.000 Y15.180 F180
M5
G0 X35.000 Y15.360
M3 S900
G1 X42.000 Y15.360 F180
M5
G0 X42.000 Y15.540
M3 S900
G1 X35.000 Y15.540 F180
M5
G0 X35.000 Y15.720
M3 S900
G1 X42.000 Y15.720 F180
M5
G0 X42.000 Y15.900
M3 S900
G1 X35.000 Y15.900 F180
M5
G0 X35.000 Y16.080
M3 S900
G1 X42.000 Y16.080 F180
M5
G0 X42.000 Y16.260
M3 S900
G1 X35.000 Y16.260 F180
M5
G0 X35.000 Y16.440
M3 S900
G1 X42.000 Y16.440 F180
M5
G0 X42.000 Y16.620
M3 S900
G1 X35.000 Y16.620 F180
M5
G0 X35.000 Y16.800
M3 S900
G1 X42.000 Y16.800 F180
M5
G0 X42.000 Y16.980
M3 S900
G1 X35.000 Y16.980 F180
M5
G0 X35.000 Y17.160
M3 S900
G1 X42.000 Y17.160 F180
M5
G0 X42.000 Y17.340
M3 S900
G1 X35.000 Y17.340 F180
M5
G0 X35.000 Y17.520
M3 S900
G1 X42.000 Y17.520 F180
M5
G0 X42.000 Y17.700
M3 S900
G1 X35.000 Y17.700 F180
M5
G0 X35.000 Y17.880
M3 S900
G1 X42.000 Y17.880 F180
M5
G0 X42.000 Y18.060
M3 S900
G1 X35.000 Y18.060 F180
M5
G0 X35.000 Y18.240
M3 S900
G1 X42.000 Y18.240 F180
M5
G0 X42.000 Y18.420
M3 S900
G1 X35.000 Y18.420 F180
M5
G0 X35.000 Y18.600
M3 S900
G1 X42.000 Y18.600 F180
M5
G0 X42.000 Y18.780
M3 S900
G1 X35.000 Y18.780 F180
M5
G0 X35.000 Y18.960
M3 S900
G1 X42.000 Y18.960 F180
M5
G0 X42.000 Y19.140
M3 S900
G1 X35.000 Y19.140 F180
M5
G0 X35.000 Y19.320
M3 S900
G1 X42.000 Y19.320 F180
M5
G0 X42.000 Y19.500
M3 S900
G1 X35.000 Y19.500 F180
M5
G0 X35.000 Y19.680
M3 S900
G1 X42.000 Y19.680 F180
M5
G0 X42.000 Y19.860
M3 S900
G1 X35.000 Y19.860 F180
M5
G0 X35.000 Y20.040
M3 S900
G1 X42.000 Y20.040 F180
M5
G0 X42.000 Y20.220
M3 S900
G1 X35.000 Y20.220 F180
M5
G0 X35.000 Y20.400
M3 S900
G1 X42.000 Y20.400 F180
M5
G0 X42.000 Y20.580
M3 S900
G1 X35.000 Y20.580 F180
M5
G0 X35.000 Y20.760
M3 S900
G1 X42.000 Y20.760 F180
M5
G0 X42.000 Y20.940
M3 S900
G1 X35.000 Y20.940 F180
M5
G0 X35.000 Y21.120
M3 S900
G1 X42.000 Y21.120 F180
M5
G0 X42.000 Y21.300
M3 S900
G1 X35.000 Y21.300 F180
M5
G0 X35.000 Y21.480
M3 S900
G1 X42.000 Y21.480 F180
M5
G0 X42.000 Y21.660
M3 S900
G1 X35.000 Y21.660 F180
M5
G0 X35.000 Y21.840
M3 S900
G1 X42.000 Y21.840 F180
M5
G0 X35.000 Y15.000
M3 S140
G1 X42.000 Y15.000 F900
M5
M3 S140
G1 X42.000 Y22.000 F900
M5
M3 S140
G1 X35.000 Y22.000 F900
M5
M3 S140
G1 X35.000 Y15.000 F900
M5
(Tile r2c5: F180, S1000)
G0 X45.000 Y15.000
M3 S1000
G1 X52.000 Y15.000 F180
M5
G0 X52.000 Y15.180
M3 S1000
G1 X45.000 Y15.180 F180
M5
G0 X45.000 Y15.360
M3 S1000
G1 X52.000 Y15.360 F180
M5
G0 X52.000 Y15.540
M3 S1000
G1 X45.000 Y15.540 F180
M5
G0 X45.000 Y15.720
M3 S1000
G1 X52.000 Y15.720 F180
M5
G0 X52.000 Y15.900
M3 S1000
G1 X45.000 Y15.900 F180
M5
G0 X45.000 Y16.080
M3 S1000
G1 X52.000 Y16.080 F180
M5
G0 X52.000 Y16.260
M3 S1000
G1 X45.000 Y16.260 F180
M5
G0 X45.000 Y16.440
M3 S1000
G1 X52.000 Y16.440 F180
M5
G0 X52.000 Y16.620
M3 S1000
G1 X45.000 Y16.620 F180
M5
G0 X45.000 Y16.800
M3 S1000
G1 X52.000 Y16.800 F180
M5
G0 X52.000 Y16.980
M3 S1000
G1 X45.000 Y16.980 F180
M5
G0 X45.000 Y17.160
M3 S1000
G1 X52.000 Y17.160 F180
M5
G0 X52.000 Y17.340
M3 S1000
G1 X45.000 Y17.340 F180
M5
G0 X45.000 Y17.520
M3 S1000
G1 X52.000 Y17.520 F180
M5
G0 X52.000 Y17.700
M3 S1000
G1 X45.000 Y17.700 F180
M5
G0 X45.000 Y17.880
M3 S1000
G1 X52.000 Y17.880 F180
M5
G0 X52.000 Y18.060
M3 S1000
G1 X45.000 Y18.060 F180
M5
G0 X45.000 Y18.240
M3 S1000
G1 X52.000 Y18.240 F180
M5
G0 X52.000 Y18.420
M3 S1000
G1 X45.000 Y18.420 F180
M5
G0 X45.000 Y18.600
M3 S1000
G1 X52.000 Y18.600 F180
M5
G0 X52.000 Y18.780
M3 S1000
G1 X45.000 Y18.780 F180
M5
G0 X45.000 Y18.960
M3 S1000
G1 X52.000 Y18.960 F180
M5
G0 X52.000 Y19.140
M3 S1000
G1 X45.000 Y19.140 F180
M5
G0 X45.000 Y19.320
M3 S1000
G1 X52.000 Y19.320 F180
M5
G0 X52.000 Y19.500
M3 S1000
G1 X45.000 Y19.500 F180
M5
G0 X45.000 Y19.680
M3 S1000
G1 X52.000 Y19.680 F180
M5
G0 X52.000 Y19.860
M3 S1000
G1 X45.000 Y19.860 F180
M5
G0 X45.000 Y20.040
M3 S1000
G1 X52.000 Y20.040 F180
M5
G0 X52.000 Y20.220
M3 S1000
G1 X45.000 Y20.220 F180
M5
G0 X45.000 Y20.400
M3 S1000
G1 X52.000 Y20.400 F180
M5
G0 X52.000 Y20.580
M3 S1000
G1 X45.000 Y20.580 F180
M5
G0 X45.000 Y20.760
M3 S1000
G1 X52.000 Y20.760 F180
M5
G0 X52.000 Y20.940
M3 S1000
G1 X45.000 Y20.940 F180
M5
G0 X45.000 Y21.120
M3 S1000
G1 X52.000 Y21.120 F180
M5
G0 X52.000 Y21.300
M3 S1000
G1 X45.000 Y21.300 F180
M5
G0 X45.000 Y21.480
M3 S1000
G1 X52.000 Y21.480 F180
M5
G0 X52.000 Y21.660
M3 S1000
G1 X45.000 Y21.660 F180
M5
G0 X45.000 Y21.840
M3 S1000
G1 X52.000 Y21.840 F180
M5
G0 X45.000 Y15.000
M3 S1000
G1 X52.000 Y15.000 F180
M5
G0 X52.000 Y15.180
M3 S1000
G1 X45.000 Y15.180 F180
M5
G0 X45.000 Y15.360
M3 S1000
G1 X52.000 Y15.360 F180
M5
G0 X52.000 Y15.540
M3 S1000
G1 X45.000 Y15.540 F180
M5
G0 X45.000 Y15.720
M3 S1000
G1 X52.000 Y15.720 F180
M5
G0 X52.000 Y15.900
M3 S1000
G1 X45.000 Y15.900 F180
M5
G0 X45.000 Y16.080
M3 S1000
G1 X52.000 Y16.080 F180
M5
G0 X52.000 Y16.260
M3 S1000
G1 X45.000 Y16.260 F180
M5
G0 X45.000 Y16.440
M3 S1000
G1 X52.000 Y16.440 F180
M5
G0 X52.000 Y16.620
M3 S1000
G1 X45.000 Y16.620 F180
M5
G0 X45.000 Y16.800
M3 S1000
G1 X52.000 Y16.800 F180
M5
G0 X52.000 Y16.980
M3 S1000
G1 X45.000 Y16.980 F180
M5
G0 X45.000 Y17.160
M3 S1000
G1 X52.000 Y17.160 F180
M5
G0 X52.000 Y17.340
M3 S1000
G1 X45.000 Y17.340 F180
M5
G0 X45.000 Y17.520
M3 S1000
G1 X52.000 Y17.520 F180
M5
G0 X52.000 Y17.700
M3 S1000
G1 X45.000 Y17.700 F180
M5
G0 X45.000 Y17.880
M3 S1000
G1 X52.000 Y17.880 F180
M5
G0 X52.000 Y18.060
M3 S1000
G1 X45.000 Y18.060 F180
M5
G0 X45.000 Y18.240
M3 S1000
G1 X52.000 Y18.240 F180
M5
G0 X52.000 Y18.420
M3 S1000
G1 X45.000 Y18.420 F180
M5
G0 X45.000 Y18.600
M3 S1000
G1 X52.000 Y18.600 F180
M5
G0 X52.000 Y18.780
M3 S1000
G1 X45.000 Y18.780 F180
M5
G0 X45.000 Y18.960
M3 S1000
G1 X52.000 Y18.960 F180
M5
G0 X52.000 Y19.140
M3 S1000
G1 X45.000 Y19.140 F180
M5
G0 X45.000 Y19.320
M3 S1000
G1 X52.000 Y19.320 F180
M5
G0 X52.000 Y19.500
M3 S1000
G1 X45.000 Y19.500 F180
M5
G0 X45.000 Y19.680
M3 S1000
G1 X52.000 Y19.680 F180
M5
G0 X52.000 Y19.860
M3 S1000
G1 X45.000 Y19.860 F180
M5
G0 X45.000 Y20.040
M3 S1000
G1 X52.000 Y20.040 F180
M5
G0 X52.000 Y20.220
M3 S1000
G1 X45.000 Y20.220 F180
M5
G0 X45.000 Y20.400
M3 S1000
G1 X52.000 Y20.400 F180
M5
G0 X52.000 Y20.580
M3 S1000
G1 X45.000 Y20.580 F180
M5
G0 X45.000 Y20.760
M3 S1000
G1 X52.000 Y20.760 F180
M5
G0 X52.000 Y20.940
M3 S1000
G1 X45.000 Y20.940 F180
M5
G0 X45.000 Y21.120
M3 S1000
G1 X52.000 Y21.120 F180
M5
G0 X52.000 Y21.300
M3 S1000
G1 X45.000 Y21.300 F180
M5
G0 X45.000 Y21.480
M3 S1000
G1 X52.000 Y21.480 F180
M5
G0 X52.000 Y21.660
M3 S1000
G1 X45.000 Y21.660 F180
M5
G0 X45.000 Y21.840
M3 S1000
G1 X52.000 Y21.840 F180
M5
G0 X45.000 Y15.000
M3 S140
G1 X52.000 Y15.000 F900
M5
M3 S140
G1 X52.000 Y22.000 F900
M5
M3 S140
G1 X45.000 Y22.000 F900
M5
M3 S140
G1 X45.000 Y15.000 F900
M5
(Tile r3c1: F240, S500)
G0 X5.000 Y25.000
M3 S500
G1 X12.000 Y25.000 F240
M5
G0 X12.000 Y25.180
M3 S500
G1 X5.000 Y25.180 F240
M5
G0 X5.000 Y25.360
M3 S500
G1 X12.000 Y25.360 F240
M5
G0 X12.000 Y25.540
M3 S500
G1 X5.000 Y25.540 F240
M5
G0 X5.000 Y25.720
M3 S500
G1 X12.000 Y25.720 F240
M5
G0 X12.000 Y25.900
M3 S500
G1 X5.000 Y25.900 F240
M5
G0 X5.000 Y26.080
M3 S500
G1 X12.000 Y26.080 F240
M5
G0 X12.000 Y26.260
M3 S500
G1 X5.000 Y26.260 F240
M5
G0 X5.000 Y26.440
M3 S500
G1 X12.000 Y26.440 F240
M5
G0 X12.000 Y26.620
M3 S500
G1 X5.000 Y26.620 F240
M5
G0 X5.000 Y26.800
M3 S500
G1 X12.000 Y26.800 F240
M5
G0 X12.000 Y26.980
M3 S500
G1 X5.000 Y26.980 F240
M5
G0 X5.000 Y27.160
M3 S500
G1 X12.000 Y27.160 F240
M5
G0 X12.000 Y27.340
M3 S500
G1 X5.000 Y27.340 F240
M5
G0 X5.000 Y27.520
M3 S500
G1 X12.000 Y27.520 F240
M5
G0 X12.000 Y27.700
M3 S500
G1 X5.000 Y27.700 F240
M5
G0 X5.000 Y27.880
M3 S500
G1 X12.000 Y27.880 F240
M5
G0 X12.000 Y28.060
M3 S500
G1 X5.000 Y28.060 F240
M5
G0 X5.000 Y28.240
M3 S500
G1 X12.000 Y28.240 F240
M5
G0 X12.000 Y28.420
M3 S500
G1 X5.000 Y28.420 F240
M5
G0 X5.000 Y28.600
M3 S500
G1 X12.000 Y28.600 F240
M5
G0 X12.000 Y28.780
M3 S500
G1 X5.000 Y28.780 F240
M5
G0 X5.000 Y28.960
M3 S500
G1 X12.000 Y28.960 F240
M5
G0 X12.000 Y29.140
M3 S500
G1 X5.000 Y29.140 F240
M5
G0 X5.000 Y29.320
M3 S500
G1 X12.000 Y29.320 F240
M5
G0 X12.000 Y29.500
M3 S500
G1 X5.000 Y29.500 F240
M5
G0 X5.000 Y29.680
M3 S500
G1 X12.000 Y29.680 F240
M5
G0 X12.000 Y29.860
M3 S500
G1 X5.000 Y29.860 F240
M5
G0 X5.000 Y30.040
M3 S500
G1 X12.000 Y30.040 F240
M5
G0 X12.000 Y30.220
M3 S500
G1 X5.000 Y30.220 F240
M5
G0 X5.000 Y30.400
M3 S500
G1 X12.000 Y30.400 F240
M5
G0 X12.000 Y30.580
M3 S500
G1 X5.000 Y30.580 F240
M5
G0 X5.000 Y30.760
M3 S500
G1 X12.000 Y30.760 F240
M5
G0 X12.000 Y30.940
M3 S500
G1 X5.000 Y30.940 F240
M5
G0 X5.000 Y31.120
M3 S500
G1 X12.000 Y31.120 F240
M5
G0 X12.000 Y31.300
M3 S500
G1 X5.000 Y31.300 F240
M5
G0 X5.000 Y31.480
M3 S500
G1 X12.000 Y31.480 F240
M5
G0 X12.000 Y31.660
M3 S500
G1 X5.000 Y31.660 F240
M5
G0 X5.000 Y31.840
M3 S500
G1 X12.000 Y31.840 F240
M5
G0 X5.000 Y25.000
M3 S500
G1 X12.000 Y25.000 F240
M5
G0 X12.000 Y25.180
M3 S500
G1 X5.000 Y25.180 F240
M5
G0 X5.000 Y25.360
M3 S500
G1 X12.000 Y25.360 F240
M5
G0 X12.000 Y25.540
M3 S500
G1 X5.000 Y25.540 F240
M5
G0 X5.000 Y25.720
M3 S500
G1 X12.000 Y25.720 F240
M5
G0 X12.000 Y25.900
M3 S500
G1 X5.000 Y25.900 F240
M5
G0 X5.000 Y26.080
M3 S500
G1 X12.000 Y26.080 F240
M5
G0 X12.000 Y26.260
M3 S500
G1 X5.000 Y26.260 F240
M5
G0 X5.000 Y26.440
M3 S500
G1 X12.000 Y26.440 F240
M5
G0 X12.000 Y26.620
M3 S500
G1 X5.000 Y26.620 F240
M5
G0 X5.000 Y26.800
M3 S500
G1 X12.000 Y26.800 F240
M5
G0 X12.000 Y26.980
M3 S500
G1 X5.000 Y26.980 F240
M5
G0 X5.000 Y27.160
M3 S500
G1 X12.000 Y27.160 F240
M5
G0 X12.000 Y27.340
M3 S500
G1 X5.000 Y27.340 F240
M5
G0 X5.000 Y27.520
M3 S500
G1 X12.000 Y27.520 F240
M5
G0 X12.000 Y27.700
M3 S500
G1 X5.000 Y27.700 F240
M5
G0 X5.000 Y27.880
M3 S500
G1 X12.000 Y27.880 F240
M5
G0 X12.000 Y28.060
M3 S500
G1 X5.000 Y28.060 F240
M5
G0 X5.000 Y28.240
M3 S500
G1 X12.000 Y28.240 F240
M5
G0 X12.000 Y28.420
M3 S500
G1 X5.000 Y28.420 F240
M5
G0 X5.000 Y28.600
M3 S500
G1 X12.000 Y28.600 F240
M5
G0 X12.000 Y28.780
M3 S500
G1 X5.000 Y28.780 F240
M5
G0 X5.000 Y28.960
M3 S500
G1 X12.000 Y28.960 F240
M5
G0 X12.000 Y29.140
M3 S500
G1 X5.000 Y29.140 F240
M5
G0 X5.000 Y29.320
M3 S500
G1 X12.000 Y29.320 F240
M5
G0 X12.000 Y29.500
M3 S500
G1 X5.000 Y29.500 F240
M5
G0 X5.000 Y29.680
M3 S500
G1 X12.000 Y29.680 F240
M5
G0 X12.000 Y29.860
M3 S500
G1 X5.000 Y29.860 F240
M5
G0 X5.000 Y30.040
M3 S500
G1 X12.000 Y30.040 F240
M5
G0 X12.000 Y30.220
M3 S500
G1 X5.000 Y30.220 F240
M5
G0 X5.000 Y30.400
M3 S500
G1 X12.000 Y30.400 F240
M5
G0 X12.000 Y30.580
M3 S500
G1 X5.000 Y30.580 F240
M5
G0 X5.000 Y30.760
M3 S500
G1 X12.000 Y30.760 F240
M5
G0 X12.000 Y30.940
M3 S500
G1 X5.000 Y30.940 F240
M5
G0 X5.000 Y31.120
M3 S500
G1 X12.000 Y31.120 F240
M5
G0 X12.000 Y31.300
M3 S500
G1 X5.000 Y31.300 F240
M5
G0 X5.000 Y31.480
M3 S500
G1 X12.000 Y31.480 F240
M5
G0 X12.000 Y31.660
M3 S500
G1 X5.000 Y31.660 F240
M5
G0 X5.000 Y31.840
M3 S500
G1 X12.000 Y31.840 F240
M5
G0 X5.000 Y25.000
M3 S140
G1 X12.000 Y25.000 F900
M5
M3 S140
G1 X12.000 Y32.000 F900
M5
M3 S140
G1 X5.000 Y32.000 F900
M5
M3 S140
G1 X5.000 Y25.000 F900
M5
(Tile r3c2: F240, S650)
G0 X15.000 Y25.000
M3 S650
G1 X22.000 Y25.000 F240
M5
G0 X22.000 Y25.180
M3 S650
G1 X15.000 Y25.180 F240
M5
G0 X15.000 Y25.360
M3 S650
G1 X22.000 Y25.360 F240
M5
G0 X22.000 Y25.540
M3 S650
G1 X15.000 Y25.540 F240
M5
G0 X15.000 Y25.720
M3 S650
G1 X22.000 Y25.720 F240
M5
G0 X22.000 Y25.900
M3 S650
G1 X15.000 Y25.900 F240
M5
G0 X15.000 Y26.080
M3 S650
G1 X22.000 Y26.080 F240
M5
G0 X22.000 Y26.260
M3 S650
G1 X15.000 Y26.260 F240
M5
G0 X15.000 Y26.440
M3 S650
G1 X22.000 Y26.440 F240
M5
G0 X22.000 Y26.620
M3 S650
G1 X15.000 Y26.620 F240
M5
G0 X15.000 Y26.800
M3 S650
G1 X22.000 Y26.800 F240
M5
G0 X22.000 Y26.980
M3 S650
G1 X15.000 Y26.980 F240
M5
G0 X15.000 Y27.160
M3 S650
G1 X22.000 Y27.160 F240
M5
G0 X22.000 Y27.340
M3 S650
G1 X15.000 Y27.340 F240
M5
G0 X15.000 Y27.520
M3 S650
G1 X22.000 Y27.520 F240
M5
G0 X22.000 Y27.700
M3 S650
G1 X15.000 Y27.700 F240
M5
G0 X15.000 Y27.880
M3 S650
G1 X22.000 Y27.880 F240
M5
G0 X22.000 Y28.060
M3 S650
G1 X15.000 Y28.060 F240
M5
G0 X15.000 Y28.240
M3 S650
G1 X22.000 Y28.240 F240
M5
G0 X22.000 Y28.420
M3 S650
G1 X15.000 Y28.420 F240
M5
G0 X15.000 Y28.600
M3 S650
G1 X22.000 Y28.600 F240
M5
G0 X22.000 Y28.780
M3 S650
G1 X15.000 Y28.780 F240
M5
G0 X15.000 Y28.960
M3 S650
G1 X22.000 Y28.960 F240
M5
G0 X22.000 Y29.140
M3 S650
G1 X15.000 Y29.140 F240
M5
G0 X15.000 Y29.320
M3 S650
G1 X22.000 Y29.320 F240
M5
G0 X22.000 Y29.500
M3 S650
G1 X15.000 Y29.500 F240
M5
G0 X15.000 Y29.680
M3 S650
G1 X22.000 Y29.680 F240
M5
G0 X22.000 Y29.860
M3 S650
G1 X15.000 Y29.860 F240
M5
G0 X15.000 Y30.040
M3 S650
G1 X22.000 Y30.040 F240
M5
G0 X22.000 Y30.220
M3 S650
G1 X15.000 Y30.220 F240
M5
G0 X15.000 Y30.400
M3 S650
G1 X22.000 Y30.400 F240
M5
G0 X22.000 Y30.580
M3 S650
G1 X15.000 Y30.580 F240
M5
G0 X15.000 Y30.760
M3 S650
G1 X22.000 Y30.760 F240
M5
G0 X22.000 Y30.940
M3 S650
G1 X15.000 Y30.940 F240
M5
G0 X15.000 Y31.120
M3 S650
G1 X22.000 Y31.120 F240
M5
G0 X22.000 Y31.300
M3 S650
G1 X15.000 Y31.300 F240
M5
G0 X15.000 Y31.480
M3 S650
G1 X22.000 Y31.480 F240
M5
G0 X22.000 Y31.660
M3 S650
G1 X15.000 Y31.660 F240
M5
G0 X15.000 Y31.840
M3 S650
G1 X22.000 Y31.840 F240
M5
G0 X15.000 Y25.000
M3 S650
G1 X22.000 Y25.000 F240
M5
G0 X22.000 Y25.180
M3 S650
G1 X15.000 Y25.180 F240
M5
G0 X15.000 Y25.360
M3 S650
G1 X22.000 Y25.360 F240
M5
G0 X22.000 Y25.540
M3 S650
G1 X15.000 Y25.540 F240
M5
G0 X15.000 Y25.720
M3 S650
G1 X22.000 Y25.720 F240
M5
G0 X22.000 Y25.900
M3 S650
G1 X15.000 Y25.900 F240
M5
G0 X15.000 Y26.080
M3 S650
G1 X22.000 Y26.080 F240
M5
G0 X22.000 Y26.260
M3 S650
G1 X15.000 Y26.260 F240
M5
G0 X15.000 Y26.440
M3 S650
G1 X22.000 Y26.440 F240
M5
G0 X22.000 Y26.620
M3 S650
G1 X15.000 Y26.620 F240
M5
G0 X15.000 Y26.800
M3 S650
G1 X22.000 Y26.800 F240
M5
G0 X22.000 Y26.980
M3 S650
G1 X15.000 Y26.980 F240
M5
G0 X15.000 Y27.160
M3 S650
G1 X22.000 Y27.160 F240
M5
G0 X22.000 Y27.340
M3 S650
G1 X15.000 Y27.340 F240
M5
G0 X15.000 Y27.520
M3 S650
G1 X22.000 Y27.520 F240
M5
G0 X22.000 Y27.700
M3 S650
G1 X15.000 Y27.700 F240
M5
G0 X15.000 Y27.880
M3 S650
G1 X22.000 Y27.880 F240
M5
G0 X22.000 Y28.060
M3 S650
G1 X15.000 Y28.060 F240
M5
G0 X15.000 Y28.240
M3 S650
G1 X22.000 Y28.240 F240
M5
G0 X22.000 Y28.420
M3 S650
G1 X15.000 Y28.420 F240
M5
G0 X15.000 Y28.600
M3 S650
G1 X22.000 Y28.600 F240
M5
G0 X22.000 Y28.780
M3 S650
G1 X15.000 Y28.780 F240
M5
G0 X15.000 Y28.960
M3 S650
G1 X22.000 Y28.960 F240
M5
G0 X22.000 Y29.140
M3 S650
G1 X15.000 Y29.140 F240
M5
G0 X15.000 Y29.320
M3 S650
G1 X22.000 Y29.320 F240
M5
G0 X22.000 Y29.500
M3 S650
G1 X15.000 Y29.500 F240
M5
G0 X15.000 Y29.680
M3 S650
G1 X22.000 Y29.680 F240
M5
G0 X22.000 Y29.860
M3 S650
G1 X15.000 Y29.860 F240
M5
G0 X15.000 Y30.040
M3 S650
G1 X22.000 Y30.040 F240
M5
G0 X22.000 Y30.220
M3 S650
G1 X15.000 Y30.220 F240
M5
G0 X15.000 Y30.400
M3 S650
G1 X22.000 Y30.400 F240
M5
G0 X22.000 Y30.580
M3 S650
G1 X15.000 Y30.580 F240
M5
G0 X15.000 Y30.760
M3 S650
G1 X22.000 Y30.760 F240
M5
G0 X22.000 Y30.940
M3 S650
G1 X15.000 Y30.940 F240
M5
G0 X15.000 Y31.120
M3 S650
G1 X22.000 Y31.120 F240
M5
G0 X22.000 Y31.300
M3 S650
G1 X15.000 Y31.300 F240
M5
G0 X15.000 Y31.480
M3 S650
G1 X22.000 Y31.480 F240
M5
G0 X22.000 Y31.660
M3 S650
G1 X15.000 Y31.660 F240
M5
G0 X15.000 Y31.840
M3 S650
G1 X22.000 Y31.840 F240
M5
G0 X15.000 Y25.000
M3 S140
G1 X22.000 Y25.000 F900
M5
M3 S140
G1 X22.000 Y32.000 F900
M5
M3 S140
G1 X15.000 Y32.000 F900
M5
M3 S140
G1 X15.000 Y25.000 F900
M5
(Tile r3c3: F240, S800)
G0 X25.000 Y25.000
M3 S800
G1 X32.000 Y25.000 F240
M5
G0 X32.000 Y25.180
M3 S800
G1 X25.000 Y25.180 F240
M5
G0 X25.000 Y25.360
M3 S800
G1 X32.000 Y25.360 F240
M5
G0 X32.000 Y25.540
M3 S800
G1 X25.000 Y25.540 F240
M5
G0 X25.000 Y25.720
M3 S800
G1 X32.000 Y25.720 F240
M5
G0 X32.000 Y25.900
M3 S800
G1 X25.000 Y25.900 F240
M5
G0 X25.000 Y26.080
M3 S800
G1 X32.000 Y26.080 F240
M5
G0 X32.000 Y26.260
M3 S800
G1 X25.000 Y26.260 F240
M5
G0 X25.000 Y26.440
M3 S800
G1 X32.000 Y26.440 F240
M5
G0 X32.000 Y26.620
M3 S800
G1 X25.000 Y26.620 F240
M5
G0 X25.000 Y26.800
M3 S800
G1 X32.000 Y26.800 F240
M5
G0 X32.000 Y26.980
M3 S800
G1 X25.000 Y26.980 F240
M5
G0 X25.000 Y27.160
M3 S800
G1 X32.000 Y27.160 F240
M5
G0 X32.000 Y27.340
M3 S800
G1 X25.000 Y27.340 F240
M5
G0 X25.000 Y27.520
M3 S800
G1 X32.000 Y27.520 F240
M5
G0 X32.000 Y27.700
M3 S800
G1 X25.000 Y27.700 F240
M5
G0 X25.000 Y27.880
M3 S800
G1 X32.000 Y27.880 F240
M5
G0 X32.000 Y28.060
M3 S800
G1 X25.000 Y28.060 F240
M5
G0 X25.000 Y28.240
M3 S800
G1 X32.000 Y28.240 F240
M5
G0 X32.000 Y28.420
M3 S800
G1 X25.000 Y28.420 F240
M5
G0 X25.000 Y28.600
M3 S800
G1 X32.000 Y28.600 F240
M5
G0 X32.000 Y28.780
M3 S800
G1 X25.000 Y28.780 F240
M5
G0 X25.000 Y28.960
M3 S800
G1 X32.000 Y28.960 F240
M5
G0 X32.000 Y29.140
M3 S800
G1 X25.000 Y29.140 F240
M5
G0 X25.000 Y29.320
M3 S800
G1 X32.000 Y29.320 F240
M5
G0 X32.000 Y29.500
M3 S800
G1 X25.000 Y29.500 F240
M5
G0 X25.000 Y29.680
M3 S800
G1 X32.000 Y29.680 F240
M5
G0 X32.000 Y29.860
M3 S800
G1 X25.000 Y29.860 F240
M5
G0 X25.000 Y30.040
M3 S800
G1 X32.000 Y30.040 F240
M5
G0 X32.000 Y30.220
M3 S800
G1 X25.000 Y30.220 F240
M5
G0 X25.000 Y30.400
M3 S800
G1 X32.000 Y30.400 F240
M5
G0 X32.000 Y30.580
M3 S800
G1 X25.000 Y30.580 F240
M5
G0 X25.000 Y30.760
M3 S800
G1 X32.000 Y30.760 F240
M5
G0 X32.000 Y30.940
M3 S800
G1 X25.000 Y30.940 F240
M5
G0 X25.000 Y31.120
M3 S800
G1 X32.000 Y31.120 F240
M5
G0 X32.000 Y31.300
M3 S800
G1 X25.000 Y31.300 F240
M5
G0 X25.000 Y31.480
M3 S800
G1 X32.000 Y31.480 F240
M5
G0 X32.000 Y31.660
M3 S800
G1 X25.000 Y31.660 F240
M5
G0 X25.000 Y31.840
M3 S800
G1 X32.000 Y31.840 F240
M5
G0 X25.000 Y25.000
M3 S800
G1 X32.000 Y25.000 F240
M5
G0 X32.000 Y25.180
M3 S800
G1 X25.000 Y25.180 F240
M5
G0 X25.000 Y25.360
M3 S800
G1 X32.000 Y25.360 F240
M5
G0 X32.000 Y25.540
M3 S800
G1 X25.000 Y25.540 F240
M5
G0 X25.000 Y25.720
M3 S800
G1 X32.000 Y25.720 F240
M5
G0 X32.000 Y25.900
M3 S800
G1 X25.000 Y25.900 F240
M5
G0 X25.000 Y26.080
M3 S800
G1 X32.000 Y26.080 F240
M5
G0 X32.000 Y26.260
M3 S800
G1 X25.000 Y26.260 F240
M5
G0 X25.000 Y26.440
M3 S800
G1 X32.000 Y26.440 F240
M5
G0 X32.000 Y26.620
M3 S800
G1 X25.000 Y26.620 F240
M5
G0 X25.000 Y26.800
M3 S800
G1 X32.000 Y26.800 F240
M5
G0 X32.000 Y26.980
M3 S800
G1 X25.000 Y26.980 F240
M5
G0 X25.000 Y27.160
M3 S800
G1 X32.000 Y27.160 F240
M5
G0 X32.000 Y27.340
M3 S800
G1 X25.000 Y27.340 F240
M5
G0 X25.000 Y27.520
M3 S800
G1 X32.000 Y27.520 F240
M5
G0 X32.000 Y27.700
M3 S800
G1 X25.000 Y27.700 F240
M5
G0 X25.000 Y27.880
M3 S800
G1 X32.000 Y27.880 F240
M5
G0 X32.000 Y28.060
M3 S800
G1 X25.000 Y28.060 F240
M5
G0 X25.000 Y28.240
M3 S800
G1 X32.000 Y28.240 F240
M5
G0 X32.000 Y28.420
M3 S800
G1 X25.000 Y28.420 F240
M5
G0 X25.000 Y28.600
M3 S800
G1 X32.000 Y28.600 F240
M5
G0 X32.000 Y28.780
M3 S800
G1 X25.000 Y28.780 F240
M5
G0 X25.000 Y28.960
M3 S800
G1 X32.000 Y28.960 F240
M5
G0 X32.000 Y29.140
M3 S800
G1 X25.000 Y29.140 F240
M5
G0 X25.000 Y29.320
M3 S800
G1 X32.000 Y29.320 F240
M5
G0 X32.000 Y29.500
M3 S800
G1 X25.000 Y29.500 F240
M5
G0 X25.000 Y29.680
M3 S800
G1 X32.000 Y29.680 F240
M5
G0 X32.000 Y29.860
M3 S800
G1 X25.000 Y29.860 F240
M5
G0 X25.000 Y30.040
M3 S800
G1 X32.000 Y30.040 F240
M5
G0 X32.000 Y30.220
M3 S800
G1 X25.000 Y30.220 F240
M5
G0 X25.000 Y30.400
M3 S800
G1 X32.000 Y30.400 F240
M5
G0 X32.000 Y30.580
M3 S800
G1 X25.000 Y30.580 F240
M5
G0 X25.000 Y30.760
M3 S800
G1 X32.000 Y30.760 F240
M5
G0 X32.000 Y30.940
M3 S800
G1 X25.000 Y30.940 F240
M5
G0 X25.000 Y31.120
M3 S800
G1 X32.000 Y31.120 F240
M5
G0 X32.000 Y31.300
M3 S800
G1 X25.000 Y31.300 F240
M5
G0 X25.000 Y31.480
M3 S800
G1 X32.000 Y31.480 F240
M5
G0 X32.000 Y31.660
M3 S800
G1 X25.000 Y31.660 F240
M5
G0 X25.000 Y31.840
M3 S800
G1 X32.000 Y31.840 F240
M5
G0 X25.000 Y25.000
M3 S140
G1 X32.000 Y25.000 F900
M5
M3 S140
G1 X32.000 Y32.000 F900
M5
M3 S140
G1 X25.000 Y32.000 F900
M5
M3 S140
G1 X25.000 Y25.000 F900
M5
(Tile r3c4: F240, S900)
G0 X35.000 Y25.000
M3 S900
G1 X42.000 Y25.000 F240
M5
G0 X42.000 Y25.180
M3 S900
G1 X35.000 Y25.180 F240
M5
G0 X35.000 Y25.360
M3 S900
G1 X42.000 Y25.360 F240
M5
G0 X42.000 Y25.540
M3 S900
G1 X35.000 Y25.540 F240
M5
G0 X35.000 Y25.720
M3 S900
G1 X42.000 Y25.720 F240
M5
G0 X42.000 Y25.900
M3 S900
G1 X35.000 Y25.900 F240
M5
G0 X35.000 Y26.080
M3 S900
G1 X42.000 Y26.080 F240
M5
G0 X42.000 Y26.260
M3 S900
G1 X35.000 Y26.260 F240
M5
G0 X35.000 Y26.440
M3 S900
G1 X42.000 Y26.440 F240
M5
G0 X42.000 Y26.620
M3 S900
G1 X35.000 Y26.620 F240
M5
G0 X35.000 Y26.800
M3 S900
G1 X42.000 Y26.800 F240
M5
G0 X42.000 Y26.980
M3 S900
G1 X35.000 Y26.980 F240
M5
G0 X35.000 Y27.160
M3 S900
G1 X42.000 Y27.160 F240
M5
G0 X42.000 Y27.340
M3 S900
G1 X35.000 Y27.340 F240
M5
G0 X35.000 Y27.520
M3 S900
G1 X42.000 Y27.520 F240
M5
G0 X42.000 Y27.700
M3 S900
G1 X35.000 Y27.700 F240
M5
G0 X35.000 Y27.880
M3 S900
G1 X42.000 Y27.880 F240
M5
G0 X42.000 Y28.060
M3 S900
G1 X35.000 Y28.060 F240
M5
G0 X35.000 Y28.240
M3 S900
G1 X42.000 Y28.240 F240
M5
G0 X42.000 Y28.420
M3 S900
G1 X35.000 Y28.420 F240
M5
G0 X35.000 Y28.600
M3 S900
G1 X42.000 Y28.600 F240
M5
G0 X42.000 Y28.780
M3 S900
G1 X35.000 Y28.780 F240
M5
G0 X35.000 Y28.960
M3 S900
G1 X42.000 Y28.960 F240
M5
G0 X42.000 Y29.140
M3 S900
G1 X35.000 Y29.140 F240
M5
G0 X35.000 Y29.320
M3 S900
G1 X42.000 Y29.320 F240
M5
G0 X42.000 Y29.500
M3 S900
G1 X35.000 Y29.500 F240
M5
G0 X35.000 Y29.680
M3 S900
G1 X42.000 Y29.680 F240
M5
G0 X42.000 Y29.860
M3 S900
G1 X35.000 Y29.860 F240
M5
G0 X35.000 Y30.040
M3 S900
G1 X42.000 Y30.040 F240
M5
G0 X42.000 Y30.220
M3 S900
G1 X35.000 Y30.220 F240
M5
G0 X35.000 Y30.400
M3 S900
G1 X42.000 Y30.400 F240
M5
G0 X42.000 Y30.580
M3 S900
G1 X35.000 Y30.580 F240
M5
G0 X35.000 Y30.760
M3 S900
G1 X42.000 Y30.760 F240
M5
G0 X42.000 Y30.940
M3 S900
G1 X35.000 Y30.940 F240
M5
G0 X35.000 Y31.120
M3 S900
G1 X42.000 Y31.120 F240
M5
G0 X42.000 Y31.300
M3 S900
G1 X35.000 Y31.300 F240
M5
G0 X35.000 Y31.480
M3 S900
G1 X42.000 Y31.480 F240
M5
G0 X42.000 Y31.660
M3 S900
G1 X35.000 Y31.660 F240
M5
G0 X35.000 Y31.840
M3 S900
G1 X42.000 Y31.840 F240
M5
G0 X35.000 Y25.000
M3 S900
G1 X42.000 Y25.000 F240
M5
G0 X42.000 Y25.180
M3 S900
G1 X35.000 Y25.180 F240
M5
G0 X35.000 Y25.360
M3 S900
G1 X42.000 Y25.360 F240
M5
G0 X42.000 Y25.540
M3 S900
G1 X35.000 Y25.540 F240
M5
G0 X35.000 Y25.720
M3 S900
G1 X42.000 Y25.720 F240
M5
G0 X42.000 Y25.900
M3 S900
G1 X35.000 Y25.900 F240
M5
G0 X35.000 Y26.080
M3 S900
G1 X42.000 Y26.080 F240
M5
G0 X42.000 Y26.260
M3 S900
G1 X35.000 Y26.260 F240
M5
G0 X35.000 Y26.440
M3 S900
G1 X42.000 Y26.440 F240
M5
G0 X42.000 Y26.620
M3 S900
G1 X35.000 Y26.620 F240
M5
G0 X35.000 Y26.800
M3 S900
G1 X42.000 Y26.800 F240
M5
G0 X42.000 Y26.980
M3 S900
G1 X35.000 Y26.980 F240
M5
G0 X35.000 Y27.160
M3 S900
G1 X42.000 Y27.160 F240
M5
G0 X42.000 Y27.340
M3 S900
G1 X35.000 Y27.340 F240
M5
G0 X35.000 Y27.520
M3 S900
G1 X42.000 Y27.520 F240
M5
G0 X42.000 Y27.700
M3 S900
G1 X35.000 Y27.700 F240
M5
G0 X35.000 Y27.880
M3 S900
G1 X42.000 Y27.880 F240
M5
G0 X42.000 Y28.060
M3 S900
G1 X35.000 Y28.060 F240
M5
G0 X35.000 Y28.240
M3 S900
G1 X42.000 Y28.240 F240
M5
G0 X42.000 Y28.420
M3 S900
G1 X35.000 Y28.420 F240
M5
G0 X35.000 Y28.600
M3 S900
G1 X42.000 Y28.600 F240
M5
G0 X42.000 Y28.780
M3 S900
G1 X35.000 Y28.780 F240
M5
G0 X35.000 Y28.960
M3 S900
G1 X42.000 Y28.960 F240
M5
G0 X42.000 Y29.140
M3 S900
G1 X35.000 Y29.140 F240
M5
G0 X35.000 Y29.320
M3 S900
G1 X42.000 Y29.320 F240
M5
G0 X42.000 Y29.500
M3 S900
G1 X35.000 Y29.500 F240
M5
G0 X35.000 Y29.680
M3 S900
G1 X42.000 Y29.680 F240
M5
G0 X42.000 Y29.860
M3 S900
G1 X35.000 Y29.860 F240
M5
G0 X35.000 Y30.040
M3 S900
G1 X42.000 Y30.040 F240
M5
G0 X42.000 Y30.220
M3 S900
G1 X35.000 Y30.220 F240
M5
G0 X35.000 Y30.400
M3 S900
G1 X42.000 Y30.400 F240
M5
G0 X42.000 Y30.580
M3 S900
G1 X35.000 Y30.580 F240
M5
G0 X35.000 Y30.760
M3 S900
G1 X42.000 Y30.760 F240
M5
G0 X42.000 Y30.940
M3 S900
G1 X35.000 Y30.940 F240
M5
G0 X35.000 Y31.120
M3 S900
G1 X42.000 Y31.120 F240
M5
G0 X42.000 Y31.300
M3 S900
G1 X35.000 Y31.300 F240
M5
G0 X35.000 Y31.480
M3 S900
G1 X42.000 Y31.480 F240
M5
G0 X42.000 Y31.660
M3 S900
G1 X35.000 Y31.660 F240
M5
G0 X35.000 Y31.840
M3 S900
G1 X42.000 Y31.840 F240
M5
G0 X35.000 Y25.000
M3 S140
G1 X42.000 Y25.000 F900
M5
M3 S140
G1 X42.000 Y32.000 F900
M5
M3 S140
G1 X35.000 Y32.000 F900
M5
M3 S140
G1 X35.000 Y25.000 F900
M5
(Tile r3c5: F240, S1000)
G0 X45.000 Y25.000
M3 S1000
G1 X52.000 Y25.000 F240
M5
G0 X52.000 Y25.180
M3 S1000
G1 X45.000 Y25.180 F240
M5
G0 X45.000 Y25.360
M3 S1000
G1 X52.000 Y25.360 F240
M5
G0 X52.000 Y25.540
M3 S1000
G1 X45.000 Y25.540 F240
M5
G0 X45.000 Y25.720
M3 S1000
G1 X52.000 Y25.720 F240
M5
G0 X52.000 Y25.900
M3 S1000
G1 X45.000 Y25.900 F240
M5
G0 X45.000 Y26.080
M3 S1000
G1 X52.000 Y26.080 F240
M5
G0 X52.000 Y26.260
M3 S1000
G1 X45.000 Y26.260 F240
M5
G0 X45.000 Y26.440
M3 S1000
G1 X52.000 Y26.440 F240
M5
G0 X52.000 Y26.620
M3 S1000
G1 X45.000 Y26.620 F240
M5
G0 X45.000 Y26.800
M3 S1000
G1 X52.000 Y26.800 F240
M5
G0 X52.000 Y26.980
M3 S1000
G1 X45.000 Y26.980 F240
M5
G0 X45.000 Y27.160
M3 S1000
G1 X52.000 Y27.160 F240
M5
G0 X52.000 Y27.340
M3 S1000
G1 X45.000 Y27.340 F240
M5
G0 X45.000 Y27.520
M3 S1000
G1 X52.000 Y27.520 F240
M5
G0 X52.000 Y27.700
M3 S1000
G1 X45.000 Y27.700 F240
M5
G0 X45.000 Y27.880
M3 S1000
G1 X52.000 Y27.880 F240
M5
G0 X52.000 Y28.060
M3 S1000
G1 X45.000 Y28.060 F240
M5
G0 X45.000 Y28.240
M3 S1000
G1 X52.000 Y28.240 F240
M5
G0 X52.000 Y28.420
M3 S1000
G1 X45.000 Y28.420 F240
M5
G0 X45.000 Y28.600
M3 S1000
G1 X52.000 Y28.600 F240
M5
G0 X52.000 Y28.780
M3 S1000
G1 X45.000 Y28.780 F240
M5
G0 X45.000 Y28.960
M3 S1000
G1 X52.000 Y28.960 F240
M5
G0 X52.000 Y29.140
M3 S1000
G1 X45.000 Y29.140 F240
M5
G0 X45.000 Y29.320
M3 S1000
G1 X52.000 Y29.320 F240
M5
G0 X52.000 Y29.500
M3 S1000
G1 X45.000 Y29.500 F240
M5
G0 X45.000 Y29.680
M3 S1000
G1 X52.000 Y29.680 F240
M5
G0 X52.000 Y29.860
M3 S1000
G1 X45.000 Y29.860 F240
M5
G0 X45.000 Y30.040
M3 S1000
G1 X52.000 Y30.040 F240
M5
G0 X52.000 Y30.220
M3 S1000
G1 X45.000 Y30.220 F240
M5
G0 X45.000 Y30.400
M3 S1000
G1 X52.000 Y30.400 F240
M5
G0 X52.000 Y30.580
M3 S1000
G1 X45.000 Y30.580 F240
M5
G0 X45.000 Y30.760
M3 S1000
G1 X52.000 Y30.760 F240
M5
G0 X52.000 Y30.940
M3 S1000
G1 X45.000 Y30.940 F240
M5
G0 X45.000 Y31.120
M3 S1000
G1 X52.000 Y31.120 F240
M5
G0 X52.000 Y31.300
M3 S1000
G1 X45.000 Y31.300 F240
M5
G0 X45.000 Y31.480
M3 S1000
G1 X52.000 Y31.480 F240
M5
G0 X52.000 Y31.660
M3 S1000
G1 X45.000 Y31.660 F240
M5
G0 X45.000 Y31.840
M3 S1000
G1 X52.000 Y31.840 F240
M5
G0 X45.000 Y25.000
M3 S1000
G1 X52.000 Y25.000 F240
M5
G0 X52.000 Y25.180
M3 S1000
G1 X45.000 Y25.180 F240
M5
G0 X45.000 Y25.360
M3 S1000
G1 X52.000 Y25.360 F240
M5
G0 X52.000 Y25.540
M3 S1000
G1 X45.000 Y25.540 F240
M5
G0 X45.000 Y25.720
M3 S1000
G1 X52.000 Y25.720 F240
M5
G0 X52.000 Y25.900
M3 S1000
G1 X45.000 Y25.900 F240
M5
G0 X45.000 Y26.080
M3 S1000
G1 X52.000 Y26.080 F240
M5
G0 X52.000 Y26.260
M3 S1000
G1 X45.000 Y26.260 F240
M5
G0 X45.000 Y26.440
M3 S1000
G1 X52.000 Y26.440 F240
M5
G0 X52.000 Y26.620
M3 S1000
G1 X45.000 Y26.620 F240
M5
G0 X45.000 Y26.800
M3 S1000
G1 X52.000 Y26.800 F240
M5
G0 X52.000 Y26.980
M3 S1000
G1 X45.000 Y26.980 F240
M5
G0 X45.000 Y27.160
M3 S1000
G1 X52.000 Y27.160 F240
M5
G0 X52.000 Y27.340
M3 S1000
G1 X45.000 Y27.340 F240
M5
G0 X45.000 Y27.520
M3 S1000
G1 X52.000 Y27.520 F240
M5
G0 X52.000 Y27.700
M3 S1000
G1 X45.000 Y27.700 F240
M5
G0 X45.000 Y27.880
M3 S1000
G1 X52.000 Y27.880 F240
M5
G0 X52.000 Y28.060
M3 S1000
G1 X45.000 Y28.060 F240
M5
G0 X45.000 Y28.240
M3 S1000
G1 X52.000 Y28.240 F240
M5
G0 X52.000 Y28.420
M3 S1000
G1 X45.000 Y28.420 F240
M5
G0 X45.000 Y28.600
M3 S1000
G1 X52.000 Y28.600 F240
M5
G0 X52.000 Y28.780
M3 S1000
G1 X45.000 Y28.780 F240
M5
G0 X45.000 Y28.960
M3 S1000
G1 X52.000 Y28.960 F240
M5
G0 X52.000 Y29.140
M3 S1000
G1 X45.000 Y29.140 F240
M5
G0 X45.000 Y29.320
M3 S1000
G1 X52.000 Y29.320 F240
M5
G0 X52.000 Y29.500
M3 S1000
G1 X45.000 Y29.500 F240
M5
G0 X45.000 Y29.680
M3 S1000
G1 X52.000 Y29.680 F240
M5
G0 X52.000 Y29.860
M3 S1000
G1 X45.000 Y29.860 F240
M5
G0 X45.000 Y30.040
M3 S1000
G1 X52.000 Y30.040 F240
M5
G0 X52.000 Y30.220
M3 S1000
G1 X45.000 Y30.220 F240
M5
G0 X45.000 Y30.400
M3 S1000
G1 X52.000 Y30.400 F240
M5
G0 X52.000 Y30.580
M3 S1000
G1 X45.000 Y30.580 F240
M5
G0 X45.000 Y30.760
M3 S1000
G1 X52.000 Y30.760 F240
M5
G0 X52.000 Y30.940
M3 S1000
G1 X45.000 Y30.940 F240
M5
G0 X45.000 Y31.120
M3 S1000
G1 X52.000 Y31.120 F240
M5
G0 X52.000 Y31.300
M3 S1000
G1 X45.000 Y31.300 F240
M5
G0 X45.000 Y31.480
M3 S1000
G1 X52.000 Y31.480 F240
M5
G0 X52.000 Y31.660
M3 S1000
G1 X45.000 Y31.660 F240
M5
G0 X45.000 Y31.840
M3 S1000
G1 X52.000 Y31.840 F240
M5
G0 X45.000 Y25.000
M3 S140
G1 X52.000 Y25.000 F900
M5
M3 S140
G1 X52.000 Y32.000 F900
M5
M3 S140
G1 X45.000 Y32.000 F900
M5
M3 S140
G1 X45.000 Y25.000 F900
M5
(Tile r4c1: F300, S500)
G0 X5.000 Y35.000
M3 S500
G1 X12.000 Y35.000 F300
M5
G0 X12.000 Y35.180
M3 S500
G1 X5.000 Y35.180 F300
M5
G0 X5.000 Y35.360
M3 S500
G1 X12.000 Y35.360 F300
M5
G0 X12.000 Y35.540
M3 S500
G1 X5.000 Y35.540 F300
M5
G0 X5.000 Y35.720
M3 S500
G1 X12.000 Y35.720 F300
M5
G0 X12.000 Y35.900
M3 S500
G1 X5.000 Y35.900 F300
M5
G0 X5.000 Y36.080
M3 S500
G1 X12.000 Y36.080 F300
M5
G0 X12.000 Y36.260
M3 S500
G1 X5.000 Y36.260 F300
M5
G0 X5.000 Y36.440
M3 S500
G1 X12.000 Y36.440 F300
M5
G0 X12.000 Y36.620
M3 S500
G1 X5.000 Y36.620 F300
M5
G0 X5.000 Y36.800
M3 S500
G1 X12.000 Y36.800 F300
M5
G0 X12.000 Y36.980
M3 S500
G1 X5.000 Y36.980 F300
M5
G0 X5.000 Y37.160
M3 S500
G1 X12.000 Y37.160 F300
M5
G0 X12.000 Y37.340
M3 S500
G1 X5.000 Y37.340 F300
M5
G0 X5.000 Y37.520
M3 S500
G1 X12.000 Y37.520 F300
M5
G0 X12.000 Y37.700
M3 S500
G1 X5.000 Y37.700 F300
M5
G0 X5.000 Y37.880
M3 S500
G1 X12.000 Y37.880 F300
M5
G0 X12.000 Y38.060
M3 S500
G1 X5.000 Y38.060 F300
M5
G0 X5.000 Y38.240
M3 S500
G1 X12.000 Y38.240 F300
M5
G0 X12.000 Y38.420
M3 S500
G1 X5.000 Y38.420 F300
M5
G0 X5.000 Y38.600
M3 S500
G1 X12.000 Y38.600 F300
M5
G0 X12.000 Y38.780
M3 S500
G1 X5.000 Y38.780 F300
M5
G0 X5.000 Y38.960
M3 S500
G1 X12.000 Y38.960 F300
M5
G0 X12.000 Y39.140
M3 S500
G1 X5.000 Y39.140 F300
M5
G0 X5.000 Y39.320
M3 S500
G1 X12.000 Y39.320 F300
M5
G0 X12.000 Y39.500
M3 S500
G1 X5.000 Y39.500 F300
M5
G0 X5.000 Y39.680
M3 S500
G1 X12.000 Y39.680 F300
M5
G0 X12.000 Y39.860
M3 S500
G1 X5.000 Y39.860 F300
M5
G0 X5.000 Y40.040
M3 S500
G1 X12.000 Y40.040 F300
M5
G0 X12.000 Y40.220
M3 S500
G1 X5.000 Y40.220 F300
M5
G0 X5.000 Y40.400
M3 S500
G1 X12.000 Y40.400 F300
M5
G0 X12.000 Y40.580
M3 S500
G1 X5.000 Y40.580 F300
M5
G0 X5.000 Y40.760
M3 S500
G1 X12.000 Y40.760 F300
M5
G0 X12.000 Y40.940
M3 S500
G1 X5.000 Y40.940 F300
M5
G0 X5.000 Y41.120
M3 S500
G1 X12.000 Y41.120 F300
M5
G0 X12.000 Y41.300
M3 S500
G1 X5.000 Y41.300 F300
M5
G0 X5.000 Y41.480
M3 S500
G1 X12.000 Y41.480 F300
M5
G0 X12.000 Y41.660
M3 S500
G1 X5.000 Y41.660 F300
M5
G0 X5.000 Y41.840
M3 S500
G1 X12.000 Y41.840 F300
M5
G0 X5.000 Y35.000
M3 S500
G1 X12.000 Y35.000 F300
M5
G0 X12.000 Y35.180
M3 S500
G1 X5.000 Y35.180 F300
M5
G0 X5.000 Y35.360
M3 S500
G1 X12.000 Y35.360 F300
M5
G0 X12.000 Y35.540
M3 S500
G1 X5.000 Y35.540 F300
M5
G0 X5.000 Y35.720
M3 S500
G1 X12.000 Y35.720 F300
M5
G0 X12.000 Y35.900
M3 S500
G1 X5.000 Y35.900 F300
M5
G0 X5.000 Y36.080
M3 S500
G1 X12.000 Y36.080 F300
M5
G0 X12.000 Y36.260
M3 S500
G1 X5.000 Y36.260 F300
M5
G0 X5.000 Y36.440
M3 S500
G1 X12.000 Y36.440 F300
M5
G0 X12.000 Y36.620
M3 S500
G1 X5.000 Y36.620 F300
M5
G0 X5.000 Y36.800
M3 S500
G1 X12.000 Y36.800 F300
M5
G0 X12.000 Y36.980
M3 S500
G1 X5.000 Y36.980 F300
M5
G0 X5.000 Y37.160
M3 S500
G1 X12.000 Y37.160 F300
M5
G0 X12.000 Y37.340
M3 S500
G1 X5.000 Y37.340 F300
M5
G0 X5.000 Y37.520
M3 S500
G1 X12.000 Y37.520 F300
M5
G0 X12.000 Y37.700
M3 S500
G1 X5.000 Y37.700 F300
M5
G0 X5.000 Y37.880
M3 S500
G1 X12.000 Y37.880 F300
M5
G0 X12.000 Y38.060
M3 S500
G1 X5.000 Y38.060 F300
M5
G0 X5.000 Y38.240
M3 S500
G1 X12.000 Y38.240 F300
M5
G0 X12.000 Y38.420
M3 S500
G1 X5.000 Y38.420 F300
M5
G0 X5.000 Y38.600
M3 S500
G1 X12.000 Y38.600 F300
M5
G0 X12.000 Y38.780
M3 S500
G1 X5.000 Y38.780 F300
M5
G0 X5.000 Y38.960
M3 S500
G1 X12.000 Y38.960 F300
M5
G0 X12.000 Y39.140
M3 S500
G1 X5.000 Y39.140 F300
M5
G0 X5.000 Y39.320
M3 S500
G1 X12.000 Y39.320 F300
M5
G0 X12.000 Y39.500
M3 S500
G1 X5.000 Y39.500 F300
M5
G0 X5.000 Y39.680
M3 S500
G1 X12.000 Y39.680 F300
M5
G0 X12.000 Y39.860
M3 S500
G1 X5.000 Y39.860 F300
M5
G0 X5.000 Y40.040
M3 S500
G1 X12.000 Y40.040 F300
M5
G0 X12.000 Y40.220
M3 S500
G1 X5.000 Y40.220 F300
M5
G0 X5.000 Y40.400
M3 S500
G1 X12.000 Y40.400 F300
M5
G0 X12.000 Y40.580
M3 S500
G1 X5.000 Y40.580 F300
M5
G0 X5.000 Y40.760
M3 S500
G1 X12.000 Y40.760 F300
M5
G0 X12.000 Y40.940
M3 S500
G1 X5.000 Y40.940 F300
M5
G0 X5.000 Y41.120
M3 S500
G1 X12.000 Y41.120 F300
M5
G0 X12.000 Y41.300
M3 S500
G1 X5.000 Y41.300 F300
M5
G0 X5.000 Y41.480
M3 S500
G1 X12.000 Y41.480 F300
M5
G0 X12.000 Y41.660
M3 S500
G1 X5.000 Y41.660 F300
M5
G0 X5.000 Y41.840
M3 S500
G1 X12.000 Y41.840 F300
M5
G0 X5.000 Y35.000
M3 S140
G1 X12.000 Y35.000 F900
M5
M3 S140
G1 X12.000 Y42.000 F900
M5
M3 S140
G1 X5.000 Y42.000 F900
M5
M3 S140
G1 X5.000 Y35.000 F900
M5
(Tile r4c2: F300, S650)
G0 X15.000 Y35.000
M3 S650
G1 X22.000 Y35.000 F300
M5
G0 X22.000 Y35.180
M3 S650
G1 X15.000 Y35.180 F300
M5
G0 X15.000 Y35.360
M3 S650
G1 X22.000 Y35.360 F300
M5
G0 X22.000 Y35.540
M3 S650
G1 X15.000 Y35.540 F300
M5
G0 X15.000 Y35.720
M3 S650
G1 X22.000 Y35.720 F300
M5
G0 X22.000 Y35.900
M3 S650
G1 X15.000 Y35.900 F300
M5
G0 X15.000 Y36.080
M3 S650
G1 X22.000 Y36.080 F300
M5
G0 X22.000 Y36.260
M3 S650
G1 X15.000 Y36.260 F300
M5
G0 X15.000 Y36.440
M3 S650
G1 X22.000 Y36.440 F300
M5
G0 X22.000 Y36.620
M3 S650
G1 X15.000 Y36.620 F300
M5
G0 X15.000 Y36.800
M3 S650
G1 X22.000 Y36.800 F300
M5
G0 X22.000 Y36.980
M3 S650
G1 X15.000 Y36.980 F300
M5
G0 X15.000 Y37.160
M3 S650
G1 X22.000 Y37.160 F300
M5
G0 X22.000 Y37.340
M3 S650
G1 X15.000 Y37.340 F300
M5
G0 X15.000 Y37.520
M3 S650
G1 X22.000 Y37.520 F300
M5
G0 X22.000 Y37.700
M3 S650
G1 X15.000 Y37.700 F300
M5
G0 X15.000 Y37.880
M3 S650
G1 X22.000 Y37.880 F300
M5
G0 X22.000 Y38.060
M3 S650
G1 X15.000 Y38.060 F300
M5
G0 X15.000 Y38.240
M3 S650
G1 X22.000 Y38.240 F300
M5
G0 X22.000 Y38.420
M3 S650
G1 X15.000 Y38.420 F300
M5
G0 X15.000 Y38.600
M3 S650
G1 X22.000 Y38.600 F300
M5
G0 X22.000 Y38.780
M3 S650
G1 X15.000 Y38.780 F300
M5
G0 X15.000 Y38.960
M3 S650
G1 X22.000 Y38.960 F300
M5
G0 X22.000 Y39.140
M3 S650
G1 X15.000 Y39.140 F300
M5
G0 X15.000 Y39.320
M3 S650
G1 X22.000 Y39.320 F300
M5
G0 X22.000 Y39.500
M3 S650
G1 X15.000 Y39.500 F300
M5
G0 X15.000 Y39.680
M3 S650
G1 X22.000 Y39.680 F300
M5
G0 X22.000 Y39.860
M3 S650
G1 X15.000 Y39.860 F300
M5
G0 X15.000 Y40.040
M3 S650
G1 X22.000 Y40.040 F300
M5
G0 X22.000 Y40.220
M3 S650
G1 X15.000 Y40.220 F300
M5
G0 X15.000 Y40.400
M3 S650
G1 X22.000 Y40.400 F300
M5
G0 X22.000 Y40.580
M3 S650
G1 X15.000 Y40.580 F300
M5
G0 X15.000 Y40.760
M3 S650
G1 X22.000 Y40.760 F300
M5
G0 X22.000 Y40.940
M3 S650
G1 X15.000 Y40.940 F300
M5
G0 X15.000 Y41.120
M3 S650
G1 X22.000 Y41.120 F300
M5
G0 X22.000 Y41.300
M3 S650
G1 X15.000 Y41.300 F300
M5
G0 X15.000 Y41.480
M3 S650
G1 X22.000 Y41.480 F300
M5
G0 X22.000 Y41.660
M3 S650
G1 X15.000 Y41.660 F300
M5
G0 X15.000 Y41.840
M3 S650
G1 X22.000 Y41.840 F300
M5
G0 X15.000 Y35.000
M3 S650
G1 X22.000 Y35.000 F300
M5
G0 X22.000 Y35.180
M3 S650
G1 X15.000 Y35.180 F300
M5
G0 X15.000 Y35.360
M3 S650
G1 X22.000 Y35.360 F300
M5
G0 X22.000 Y35.540
M3 S650
G1 X15.000 Y35.540 F300
M5
G0 X15.000 Y35.720
M3 S650
G1 X22.000 Y35.720 F300
M5
G0 X22.000 Y35.900
M3 S650
G1 X15.000 Y35.900 F300
M5
G0 X15.000 Y36.080
M3 S650
G1 X22.000 Y36.080 F300
M5
G0 X22.000 Y36.260
M3 S650
G1 X15.000 Y36.260 F300
M5
G0 X15.000 Y36.440
M3 S650
G1 X22.000 Y36.440 F300
M5
G0 X22.000 Y36.620
M3 S650
G1 X15.000 Y36.620 F300
M5
G0 X15.000 Y36.800
M3 S650
G1 X22.000 Y36.800 F300
M5
G0 X22.000 Y36.980
M3 S650
G1 X15.000 Y36.980 F300
M5
G0 X15.000 Y37.160
M3 S650
G1 X22.000 Y37.160 F300
M5
G0 X22.000 Y37.340
M3 S650
G1 X15.000 Y37.340 F300
M5
G0 X15.000 Y37.520
M3 S650
G1 X22.000 Y37.520 F300
M5
G0 X22.000 Y37.700
M3 S650
G1 X15.000 Y37.700 F300
M5
G0 X15.000 Y37.880
M3 S650
G1 X22.000 Y37.880 F300
M5
G0 X22.000 Y38.060
M3 S650
G1 X15.000 Y38.060 F300
M5
G0 X15.000 Y38.240
M3 S650
G1 X22.000 Y38.240 F300
M5
G0 X22.000 Y38.420
M3 S650
G1 X15.000 Y38.420 F300
M5
G0 X15.000 Y38.600
M3 S650
G1 X22.000 Y38.600 F300
M5
G0 X22.000 Y38.780
M3 S650
G1 X15.000 Y38.780 F300
M5
G0 X15.000 Y38.960
M3 S650
G1 X22.000 Y38.960 F300
M5
G0 X22.000 Y39.140
M3 S650
G1 X15.000 Y39.140 F300
M5
G0 X15.000 Y39.320
M3 S650
G1 X22.000 Y39.320 F300
M5
G0 X22.000 Y39.500
M3 S650
G1 X15.000 Y39.500 F300
M5
G0 X15.000 Y39.680
M3 S650
G1 X22.000 Y39.680 F300
M5
G0 X22.000 Y39.860
M3 S650
G1 X15.000 Y39.860 F300
M5
G0 X15.000 Y40.040
M3 S650
G1 X22.000 Y40.040 F300
M5
G0 X22.000 Y40.220
M3 S650
G1 X15.000 Y40.220 F300
M5
G0 X15.000 Y40.400
M3 S650
G1 X22.000 Y40.400 F300
M5
G0 X22.000 Y40.580
M3 S650
G1 X15.000 Y40.580 F300
M5
G0 X15.000 Y40.760
M3 S650
G1 X22.000 Y40.760 F300
M5
G0 X22.000 Y40.940
M3 S650
G1 X15.000 Y40.940 F300
M5
G0 X15.000 Y41.120
M3 S650
G1 X22.000 Y41.120 F300
M5
G0 X22.000 Y41.300
M3 S650
G1 X15.000 Y41.300 F300
M5
G0 X15.000 Y41.480
M3 S650
G1 X22.000 Y41.480 F300
M5
G0 X22.000 Y41.660
M3 S650
G1 X15.000 Y41.660 F300
M5
G0 X15.000 Y41.840
M3 S650
G1 X22.000 Y41.840 F300
M5
G0 X15.000 Y35.000
M3 S140
G1 X22.000 Y35.000 F900
M5
M3 S140
G1 X22.000 Y42.000 F900
M5
M3 S140
G1 X15.000 Y42.000 F900
M5
M3 S140
G1 X15.000 Y35.000 F900
M5
(Tile r4c3: F300, S800)
G0 X25.000 Y35.000
M3 S800
G1 X32.000 Y35.000 F300
M5
G0 X32.000 Y35.180
M3 S800
G1 X25.000 Y35.180 F300
M5
G0 X25.000 Y35.360
M3 S800
G1 X32.000 Y35.360 F300
M5
G0 X32.000 Y35.540
M3 S800
G1 X25.000 Y35.540 F300
M5
G0 X25.000 Y35.720
M3 S800
G1 X32.000 Y35.720 F300
M5
G0 X32.000 Y35.900
M3 S800
G1 X25.000 Y35.900 F300
M5
G0 X25.000 Y36.080
M3 S800
G1 X32.000 Y36.080 F300
M5
G0 X32.000 Y36.260
M3 S800
G1 X25.000 Y36.260 F300
M5
G0 X25.000 Y36.440
M3 S800
G1 X32.000 Y36.440 F300
M5
G0 X32.000 Y36.620
M3 S800
G1 X25.000 Y36.620 F300
M5
G0 X25.000 Y36.800
M3 S800
G1 X32.000 Y36.800 F300
M5
G0 X32.000 Y36.980
M3 S800
G1 X25.000 Y36.980 F300
M5
G0 X25.000 Y37.160
M3 S800
G1 X32.000 Y37.160 F300
M5
G0 X32.000 Y37.340
M3 S800
G1 X25.000 Y37.340 F300
M5
G0 X25.000 Y37.520
M3 S800
G1 X32.000 Y37.520 F300
M5
G0 X32.000 Y37.700
M3 S800
G1 X25.000 Y37.700 F300
M5
G0 X25.000 Y37.880
M3 S800
G1 X32.000 Y37.880 F300
M5
G0 X32.000 Y38.060
M3 S800
G1 X25.000 Y38.060 F300
M5
G0 X25.000 Y38.240
M3 S800
G1 X32.000 Y38.240 F300
M5
G0 X32.000 Y38.420
M3 S800
G1 X25.000 Y38.420 F300
M5
G0 X25.000 Y38.600
M3 S800
G1 X32.000 Y38.600 F300
M5
G0 X32.000 Y38.780
M3 S800
G1 X25.000 Y38.780 F300
M5
G0 X25.000 Y38.960
M3 S800
G1 X32.000 Y38.960 F300
M5
G0 X32.000 Y39.140
M3 S800
G1 X25.000 Y39.140 F300
M5
G0 X25.000 Y39.320
M3 S800
G1 X32.000 Y39.320 F300
M5
G0 X32.000 Y39.500
M3 S800
G1 X25.000 Y39.500 F300
M5
G0 X25.000 Y39.680
M3 S800
G1 X32.000 Y39.680 F300
M5
G0 X32.000 Y39.860
M3 S800
G1 X25.000 Y39.860 F300
M5
G0 X25.000 Y40.040
M3 S800
G1 X32.000 Y40.040 F300
M5
G0 X32.000 Y40.220
M3 S800
G1 X25.000 Y40.220 F300
M5
G0 X25.000 Y40.400
M3 S800
G1 X32.000 Y40.400 F300
M5
G0 X32.000 Y40.580
M3 S800
G1 X25.000 Y40.580 F300
M5
G0 X25.000 Y40.760
M3 S800
G1 X32.000 Y40.760 F300
M5
G0 X32.000 Y40.940
M3 S800
G1 X25.000 Y40.940 F300
M5
G0 X25.000 Y41.120
M3 S800
G1 X32.000 Y41.120 F300
M5
G0 X32.000 Y41.300
M3 S800
G1 X25.000 Y41.300 F300
M5
G0 X25.000 Y41.480
M3 S800
G1 X32.000 Y41.480 F300
M5
G0 X32.000 Y41.660
M3 S800
G1 X25.000 Y41.660 F300
M5
G0 X25.000 Y41.840
M3 S800
G1 X32.000 Y41.840 F300
M5
G0 X25.000 Y35.000
M3 S800
G1 X32.000 Y35.000 F300
M5
G0 X32.000 Y35.180
M3 S800
G1 X25.000 Y35.180 F300
M5
G0 X25.000 Y35.360
M3 S800
G1 X32.000 Y35.360 F300
M5
G0 X32.000 Y35.540
M3 S800
G1 X25.000 Y35.540 F300
M5
G0 X25.000 Y35.720
M3 S800
G1 X32.000 Y35.720 F300
M5
G0 X32.000 Y35.900
M3 S800
G1 X25.000 Y35.900 F300
M5
G0 X25.000 Y36.080
M3 S800
G1 X32.000 Y36.080 F300
M5
G0 X32.000 Y36.260
M3 S800
G1 X25.000 Y36.260 F300
M5
G0 X25.000 Y36.440
M3 S800
G1 X32.000 Y36.440 F300
M5
G0 X32.000 Y36.620
M3 S800
G1 X25.000 Y36.620 F300
M5
G0 X25.000 Y36.800
M3 S800
G1 X32.000 Y36.800 F300
M5
G0 X32.000 Y36.980
M3 S800
G1 X25.000 Y36.980 F300
M5
G0 X25.000 Y37.160
M3 S800
G1 X32.000 Y37.160 F300
M5
G0 X32.000 Y37.340
M3 S800
G1 X25.000 Y37.340 F300
M5
G0 X25.000 Y37.520
M3 S800
G1 X32.000 Y37.520 F300
M5
G0 X32.000 Y37.700
M3 S800
G1 X25.000 Y37.700 F300
M5
G0 X25.000 Y37.880
M3 S800
G1 X32.000 Y37.880 F300
M5
G0 X32.000 Y38.060
M3 S800
G1 X25.000 Y38.060 F300
M5
G0 X25.000 Y38.240
M3 S800
G1 X32.000 Y38.240 F300
M5
G0 X32.000 Y38.420
M3 S800
G1 X25.000 Y38.420 F300
M5
G0 X25.000 Y38.600
M3 S800
G1 X32.000 Y38.600 F300
M5
G0 X32.000 Y38.780
M3 S800
G1 X25.000 Y38.780 F300
M5
G0 X25.000 Y38.960
M3 S800
G1 X32.000 Y38.960 F300
M5
G0 X32.000 Y39.140
M3 S800
G1 X25.000 Y39.140 F300
M5
G0 X25.000 Y39.320
M3 S800
G1 X32.000 Y39.320 F300
M5
G0 X32.000 Y39.500
M3 S800
G1 X25.000 Y39.500 F300
M5
G0 X25.000 Y39.680
M3 S800
G1 X32.000 Y39.680 F300
M5
G0 X32.000 Y39.860
M3 S800
G1 X25.000 Y39.860 F300
M5
G0 X25.000 Y40.040
M3 S800
G1 X32.000 Y40.040 F300
M5
G0 X32.000 Y40.220
M3 S800
G1 X25.000 Y40.220 F300
M5
G0 X25.000 Y40.400
M3 S800
G1 X32.000 Y40.400 F300
M5
G0 X32.000 Y40.580
M3 S800
G1 X25.000 Y40.580 F300
M5
G0 X25.000 Y40.760
M3 S800
G1 X32.000 Y40.760 F300
M5
G0 X32.000 Y40.940
M3 S800
G1 X25.000 Y40.940 F300
M5
G0 X25.000 Y41.120
M3 S800
G1 X32.000 Y41.120 F300
M5
G0 X32.000 Y41.300
M3 S800
G1 X25.000 Y41.300 F300
M5
G0 X25.000 Y41.480
M3 S800
G1 X32.000 Y41.480 F300
M5
G0 X32.000 Y41.660
M3 S800
G1 X25.000 Y41.660 F300
M5
G0 X25.000 Y41.840
M3 S800
G1 X32.000 Y41.840 F300
M5
G0 X25.000 Y35.000
M3 S140
G1 X32.000 Y35.000 F900
M5
M3 S140
G1 X32.000 Y42.000 F900
M5
M3 S140
G1 X25.000 Y42.000 F900
M5
M3 S140
G1 X25.000 Y35.000 F900
M5
(Tile r4c4: F300, S900)
G0 X35.000 Y35.000
M3 S900
G1 X42.000 Y35.000 F300
M5
G0 X42.000 Y35.180
M3 S900
G1 X35.000 Y35.180 F300
M5
G0 X35.000 Y35.360
M3 S900
G1 X42.000 Y35.360 F300
M5
G0 X42.000 Y35.540
M3 S900
G1 X35.000 Y35.540 F300
M5
G0 X35.000 Y35.720
M3 S900
G1 X42.000 Y35.720 F300
M5
G0 X42.000 Y35.900
M3 S900
G1 X35.000 Y35.900 F300
M5
G0 X35.000 Y36.080
M3 S900
G1 X42.000 Y36.080 F300
M5
G0 X42.000 Y36.260
M3 S900
G1 X35.000 Y36.260 F300
M5
G0 X35.000 Y36.440
M3 S900
G1 X42.000 Y36.440 F300
M5
G0 X42.000 Y36.620
M3 S900
G1 X35.000 Y36.620 F300
M5
G0 X35.000 Y36.800
M3 S900
G1 X42.000 Y36.800 F300
M5
G0 X42.000 Y36.980
M3 S900
G1 X35.000 Y36.980 F300
M5
G0 X35.000 Y37.160
M3 S900
G1 X42.000 Y37.160 F300
M5
G0 X42.000 Y37.340
M3 S900
G1 X35.000 Y37.340 F300
M5
G0 X35.000 Y37.520
M3 S900
G1 X42.000 Y37.520 F300
M5
G0 X42.000 Y37.700
M3 S900
G1 X35.000 Y37.700 F300
M5
G0 X35.000 Y37.880
M3 S900
G1 X42.000 Y37.880 F300
M5
G0 X42.000 Y38.060
M3 S900
G1 X35.000 Y38.060 F300
M5
G0 X35.000 Y38.240
M3 S900
G1 X42.000 Y38.240 F300
M5
G0 X42.000 Y38.420
M3 S900
G1 X35.000 Y38.420 F300
M5
G0 X35.000 Y38.600
M3 S900
G1 X42.000 Y38.600 F300
M5
G0 X42.000 Y38.780
M3 S900
G1 X35.000 Y38.780 F300
M5
G0 X35.000 Y38.960
M3 S900
G1 X42.000 Y38.960 F300
M5
G0 X42.000 Y39.140
M3 S900
G1 X35.000 Y39.140 F300
M5
G0 X35.000 Y39.320
M3 S900
G1 X42.000 Y39.320 F300
M5
G0 X42.000 Y39.500
M3 S900
G1 X35.000 Y39.500 F300
M5
G0 X35.000 Y39.680
M3 S900
G1 X42.000 Y39.680 F300
M5
G0 X42.000 Y39.860
M3 S900
G1 X35.000 Y39.860 F300
M5
G0 X35.000 Y40.040
M3 S900
G1 X42.000 Y40.040 F300
M5
G0 X42.000 Y40.220
M3 S900
G1 X35.000 Y40.220 F300
M5
G0 X35.000 Y40.400
M3 S900
G1 X42.000 Y40.400 F300
M5
G0 X42.000 Y40.580
M3 S900
G1 X35.000 Y40.580 F300
M5
G0 X35.000 Y40.760
M3 S900
G1 X42.000 Y40.760 F300
M5
G0 X42.000 Y40.940
M3 S900
G1 X35.000 Y40.940 F300
M5
G0 X35.000 Y41.120
M3 S900
G1 X42.000 Y41.120 F300
M5
G0 X42.000 Y41.300
M3 S900
G1 X35.000 Y41.300 F300
M5
G0 X35.000 Y41.480
M3 S900
G1 X42.000 Y41.480 F300
M5
G0 X42.000 Y41.660
M3 S900
G1 X35.000 Y41.660 F300
M5
G0 X35.000 Y41.840
M3 S900
G1 X42.000 Y41.840 F300
M5
G0 X35.000 Y35.000
M3 S900
G1 X42.000 Y35.000 F300
M5
G0 X42.000 Y35.180
M3 S900
G1 X35.000 Y35.180 F300
M5
G0 X35.000 Y35.360
M3 S900
G1 X42.000 Y35.360 F300
M5
G0 X42.000 Y35.540
M3 S900
G1 X35.000 Y35.540 F300
M5
G0 X35.000 Y35.720
M3 S900
G1 X42.000 Y35.720 F300
M5
G0 X42.000 Y35.900
M3 S900
G1 X35.000 Y35.900 F300
M5
G0 X35.000 Y36.080
M3 S900
G1 X42.000 Y36.080 F300
M5
G0 X42.000 Y36.260
M3 S900
G1 X35.000 Y36.260 F300
M5
G0 X35.000 Y36.440
M3 S900
G1 X42.000 Y36.440 F300
M5
G0 X42.000 Y36.620
M3 S900
G1 X35.000 Y36.620 F300
M5
G0 X35.000 Y36.800
M3 S900
G1 X42.000 Y36.800 F300
M5
G0 X42.000 Y36.980
M3 S900
G1 X35.000 Y36.980 F300
M5
G0 X35.000 Y37.160
M3 S900
G1 X42.000 Y37.160 F300
M5
G0 X42.000 Y37.340
M3 S900
G1 X35.000 Y37.340 F300
M5
G0 X35.000 Y37.520
M3 S900
G1 X42.000 Y37.520 F300
M5
G0 X42.000 Y37.700
M3 S900
G1 X35.000 Y37.700 F300
M5
G0 X35.000 Y37.880
M3 S900
G1 X42.000 Y37.880 F300
M5
G0 X42.000 Y38.060
M3 S900
G1 X35.000 Y38.060 F300
M5
G0 X35.000 Y38.240
M3 S900
G1 X42.000 Y38.240 F300
M5
G0 X42.000 Y38.420
M3 S900
G1 X35.000 Y38.420 F300
M5
G0 X35.000 Y38.600
M3 S900
G1 X42.000 Y38.600 F300
M5
G0 X42.000 Y38.780
M3 S900
G1 X35.000 Y38.780 F300
M5
G0 X35.000 Y38.960
M3 S900
G1 X42.000 Y38.960 F300
M5
G0 X42.000 Y39.140
M3 S900
G1 X35.000 Y39.140 F300
M5
G0 X35.000 Y39.320
M3 S900
G1 X42.000 Y39.320 F300
M5
G0 X42.000 Y39.500
M3 S900
G1 X35.000 Y39.500 F300
M5
G0 X35.000 Y39.680
M3 S900
G1 X42.000 Y39.680 F300
M5
G0 X42.000 Y39.860
M3 S900
G1 X35.000 Y39.860 F300
M5
G0 X35.000 Y40.040
M3 S900
G1 X42.000 Y40.040 F300
M5
G0 X42.000 Y40.220
M3 S900
G1 X35.000 Y40.220 F300
M5
G0 X35.000 Y40.400
M3 S900
G1 X42.000 Y40.400 F300
M5
G0 X42.000 Y40.580
M3 S900
G1 X35.000 Y40.580 F300
M5
G0 X35.000 Y40.760
M3 S900
G1 X42.000 Y40.760 F300
M5
G0 X42.000 Y40.940
M3 S900
G1 X35.000 Y40.940 F300
M5
G0 X35.000 Y41.120
M3 S900
G1 X42.000 Y41.120 F300
M5
G0 X42.000 Y41.300
M3 S900
G1 X35.000 Y41.300 F300
M5
G0 X35.000 Y41.480
M3 S900
G1 X42.000 Y41.480 F300
M5
G0 X42.000 Y41.660
M3 S900
G1 X35.000 Y41.660 F300
M5
G0 X35.000 Y41.840
M3 S900
G1 X42.000 Y41.840 F300
M5
G0 X35.000 Y35.000
M3 S140
G1 X42.000 Y35.000 F900
M5
M3 S140
G1 X42.000 Y42.000 F900
M5
M3 S140
G1 X35.000 Y42.000 F900
M5
M3 S140
G1 X35.000 Y35.000 F900
M5
(Tile r4c5: F300, S1000)
G0 X45.000 Y35.000
M3 S1000
G1 X52.000 Y35.000 F300
M5
G0 X52.000 Y35.180
M3 S1000
G1 X45.000 Y35.180 F300
M5
G0 X45.000 Y35.360
M3 S1000
G1 X52.000 Y35.360 F300
M5
G0 X52.000 Y35.540
M3 S1000
G1 X45.000 Y35.540 F300
M5
G0 X45.000 Y35.720
M3 S1000
G1 X52.000 Y35.720 F300
M5
G0 X52.000 Y35.900
M3 S1000
G1 X45.000 Y35.900 F300
M5
G0 X45.000 Y36.080
M3 S1000
G1 X52.000 Y36.080 F300
M5
G0 X52.000 Y36.260
M3 S1000
G1 X45.000 Y36.260 F300
M5
G0 X45.000 Y36.440
M3 S1000
G1 X52.000 Y36.440 F300
M5
G0 X52.000 Y36.620
M3 S1000
G1 X45.000 Y36.620 F300
M5
G0 X45.000 Y36.800
M3 S1000
G1 X52.000 Y36.800 F300
M5
G0 X52.000 Y36.980
M3 S1000
G1 X45.000 Y36.980 F300
M5
G0 X45.000 Y37.160
M3 S1000
G1 X52.000 Y37.160 F300
M5
G0 X52.000 Y37.340
M3 S1000
G1 X45.000 Y37.340 F300
M5
G0 X45.000 Y37.520
M3 S1000
G1 X52.000 Y37.520 F300
M5
G0 X52.000 Y37.700
M3 S1000
G1 X45.000 Y37.700 F300
M5
G0 X45.000 Y37.880
M3 S1000
G1 X52.000 Y37.880 F300
M5
G0 X52.000 Y38.060
M3 S1000
G1 X45.000 Y38.060 F300
M5
G0 X45.000 Y38.240
M3 S1000
G1 X52.000 Y38.240 F300
M5
G0 X52.000 Y38.420
M3 S1000
G1 X45.000 Y38.420 F300
M5
G0 X45.000 Y38.600
M3 S1000
G1 X52.000 Y38.600 F300
M5
G0 X52.000 Y38.780
M3 S1000
G1 X45.000 Y38.780 F300
M5
G0 X45.000 Y38.960
M3 S1000
G1 X52.000 Y38.960 F300
M5
G0 X52.000 Y39.140
M3 S1000
G1 X45.000 Y39.140 F300
M5
G0 X45.000 Y39.320
M3 S1000
G1 X52.000 Y39.320 F300
M5
G0 X52.000 Y39.500
M3 S1000
G1 X45.000 Y39.500 F300
M5
G0 X45.000 Y39.680
M3 S1000
G1 X52.000 Y39.680 F300
M5
G0 X52.000 Y39.860
M3 S1000
G1 X45.000 Y39.860 F300
M5
G0 X45.000 Y40.040
M3 S1000
G1 X52.000 Y40.040 F300
M5
G0 X52.000 Y40.220
M3 S1000
G1 X45.000 Y40.220 F300
M5
G0 X45.000 Y40.400
M3 S1000
G1 X52.000 Y40.400 F300
M5
G0 X52.000 Y40.580
M3 S1000
G1 X45.000 Y40.580 F300
M5
G0 X45.000 Y40.760
M3 S1000
G1 X52.000 Y40.760 F300
M5
G0 X52.000 Y40.940
M3 S1000
G1 X45.000 Y40.940 F300
M5
G0 X45.000 Y41.120
M3 S1000
G1 X52.000 Y41.120 F300
M5
G0 X52.000 Y41.300
M3 S1000
G1 X45.000 Y41.300 F300
M5
G0 X45.000 Y41.480
M3 S1000
G1 X52.000 Y41.480 F300
M5
G0 X52.000 Y41.660
M3 S1000
G1 X45.000 Y41.660 F300
M5
G0 X45.000 Y41.840
M3 S1000
G1 X52.000 Y41.840 F300
M5
G0 X45.000 Y35.000
M3 S1000
G1 X52.000 Y35.000 F300
M5
G0 X52.000 Y35.180
M3 S1000
G1 X45.000 Y35.180 F300
M5
G0 X45.000 Y35.360
M3 S1000
G1 X52.000 Y35.360 F300
M5
G0 X52.000 Y35.540
M3 S1000
G1 X45.000 Y35.540 F300
M5
G0 X45.000 Y35.720
M3 S1000
G1 X52.000 Y35.720 F300
M5
G0 X52.000 Y35.900
M3 S1000
G1 X45.000 Y35.900 F300
M5
G0 X45.000 Y36.080
M3 S1000
G1 X52.000 Y36.080 F300
M5
G0 X52.000 Y36.260
M3 S1000
G1 X45.000 Y36.260 F300
M5
G0 X45.000 Y36.440
M3 S1000
G1 X52.000 Y36.440 F300
M5
G0 X52.000 Y36.620
M3 S1000
G1 X45.000 Y36.620 F300
M5
G0 X45.000 Y36.800
M3 S1000
G1 X52.000 Y36.800 F300
M5
G0 X52.000 Y36.980
M3 S1000
G1 X45.000 Y36.980 F300
M5
G0 X45.000 Y37.160
M3 S1000
G1 X52.000 Y37.160 F300
M5
G0 X52.000 Y37.340
M3 S1000
G1 X45.000 Y37.340 F300
M5
G0 X45.000 Y37.520
M3 S1000
G1 X52.000 Y37.520 F300
M5
G0 X52.000 Y37.700
M3 S1000
G1 X45.000 Y37.700 F300
M5
G0 X45.000 Y37.880
M3 S1000
G1 X52.000 Y37.880 F300
M5
G0 X52.000 Y38.060
M3 S1000
G1 X45.000 Y38.060 F300
M5
G0 X45.000 Y38.240
M3 S1000
G1 X52.000 Y38.240 F300
M5
G0 X52.000 Y38.420
M3 S1000
G1 X45.000 Y38.420 F300
M5
G0 X45.000 Y38.600
M3 S1000
G1 X52.000 Y38.600 F300
M5
G0 X52.000 Y38.780
M3 S1000
G1 X45.000 Y38.780 F300
M5
G0 X45.000 Y38.960
M3 S1000
G1 X52.000 Y38.960 F300
M5
G0 X52.000 Y39.140
M3 S1000
G1 X45.000 Y39.140 F300
M5
G0 X45.000 Y39.320
M3 S1000
G1 X52.000 Y39.320 F300
M5
G0 X52.000 Y39.500
M3 S1000
G1 X45.000 Y39.500 F300
M5
G0 X45.000 Y39.680
M3 S1000
G1 X52.000 Y39.680 F300
M5
G0 X52.000 Y39.860
M3 S1000
G1 X45.000 Y39.860 F300
M5
G0 X45.000 Y40.040
M3 S1000
G1 X52.000 Y40.040 F300
M5
G0 X52.000 Y40.220
M3 S1000
G1 X45.000 Y40.220 F300
M5
G0 X45.000 Y40.400
M3 S1000
G1 X52.000 Y40.400 F300
M5
G0 X52.000 Y40.580
M3 S1000
G1 X45.000 Y40.580 F300
M5
G0 X45.000 Y40.760
M3 S1000
G1 X52.000 Y40.760 F300
M5
G0 X52.000 Y40.940
M3 S1000
G1 X45.000 Y40.940 F300
M5
G0 X45.000 Y41.120
M3 S1000
G1 X52.000 Y41.120 F300
M5
G0 X52.000 Y41.300
M3 S1000
G1 X45.000 Y41.300 F300
M5
G0 X45.000 Y41.480
M3 S1000
G1 X52.000 Y41.480 F300
M5
G0 X52.000 Y41.660
M3 S1000
G1 X45.000 Y41.660 F300
M5
G0 X45.000 Y41.840
M3 S1000
G1 X52.000 Y41.840 F300
M5
G0 X45.000 Y35.000
M3 S140
G1 X52.000 Y35.000 F900
M5
M3 S140
G1 X52.000 Y42.000 F900
M5
M3 S140
G1 X45.000 Y42.000 F900
M5
M3 S140
G1 X45.000 Y35.000 F900
M5
(Tile r5c1: F360, S500)
G0 X5.000 Y45.000
M3 S500
G1 X12.000 Y45.000 F360
M5
G0 X12.000 Y45.180
M3 S500
G1 X5.000 Y45.180 F360
M5
G0 X5.000 Y45.360
M3 S500
G1 X12.000 Y45.360 F360
M5
G0 X12.000 Y45.540
M3 S500
G1 X5.000 Y45.540 F360
M5
G0 X5.000 Y45.720
M3 S500
G1 X12.000 Y45.720 F360
M5
G0 X12.000 Y45.900
M3 S500
G1 X5.000 Y45.900 F360
M5
G0 X5.000 Y46.080
M3 S500
G1 X12.000 Y46.080 F360
M5
G0 X12.000 Y46.260
M3 S500
G1 X5.000 Y46.260 F360
M5
G0 X5.000 Y46.440
M3 S500
G1 X12.000 Y46.440 F360
M5
G0 X12.000 Y46.620
M3 S500
G1 X5.000 Y46.620 F360
M5
G0 X5.000 Y46.800
M3 S500
G1 X12.000 Y46.800 F360
M5
G0 X12.000 Y46.980
M3 S500
G1 X5.000 Y46.980 F360
M5
G0 X5.000 Y47.160
M3 S500
G1 X12.000 Y47.160 F360
M5
G0 X12.000 Y47.340
M3 S500
G1 X5.000 Y47.340 F360
M5
G0 X5.000 Y47.520
M3 S500
G1 X12.000 Y47.520 F360
M5
G0 X12.000 Y47.700
M3 S500
G1 X5.000 Y47.700 F360
M5
G0 X5.000 Y47.880
M3 S500
G1 X12.000 Y47.880 F360
M5
G0 X12.000 Y48.060
M3 S500
G1 X5.000 Y48.060 F360
M5
G0 X5.000 Y48.240
M3 S500
G1 X12.000 Y48.240 F360
M5
G0 X12.000 Y48.420
M3 S500
G1 X5.000 Y48.420 F360
M5
G0 X5.000 Y48.600
M3 S500
G1 X12.000 Y48.600 F360
M5
G0 X12.000 Y48.780
M3 S500
G1 X5.000 Y48.780 F360
M5
G0 X5.000 Y48.960
M3 S500
G1 X12.000 Y48.960 F360
M5
G0 X12.000 Y49.140
M3 S500
G1 X5.000 Y49.140 F360
M5
G0 X5.000 Y49.320
M3 S500
G1 X12.000 Y49.320 F360
M5
G0 X12.000 Y49.500
M3 S500
G1 X5.000 Y49.500 F360
M5
G0 X5.000 Y49.680
M3 S500
G1 X12.000 Y49.680 F360
M5
G0 X12.000 Y49.860
M3 S500
G1 X5.000 Y49.860 F360
M5
G0 X5.000 Y50.040
M3 S500
G1 X12.000 Y50.040 F360
M5
G0 X12.000 Y50.220
M3 S500
G1 X5.000 Y50.220 F360
M5
G0 X5.000 Y50.400
M3 S500
G1 X12.000 Y50.400 F360
M5
G0 X12.000 Y50.580
M3 S500
G1 X5.000 Y50.580 F360
M5
G0 X5.000 Y50.760
M3 S500
G1 X12.000 Y50.760 F360
M5
G0 X12.000 Y50.940
M3 S500
G1 X5.000 Y50.940 F360
M5
G0 X5.000 Y51.120
M3 S500
G1 X12.000 Y51.120 F360
M5
G0 X12.000 Y51.300
M3 S500
G1 X5.000 Y51.300 F360
M5
G0 X5.000 Y51.480
M3 S500
G1 X12.000 Y51.480 F360
M5
G0 X12.000 Y51.660
M3 S500
G1 X5.000 Y51.660 F360
M5
G0 X5.000 Y51.840
M3 S500
G1 X12.000 Y51.840 F360
M5
G0 X5.000 Y45.000
M3 S500
G1 X12.000 Y45.000 F360
M5
G0 X12.000 Y45.180
M3 S500
G1 X5.000 Y45.180 F360
M5
G0 X5.000 Y45.360
M3 S500
G1 X12.000 Y45.360 F360
M5
G0 X12.000 Y45.540
M3 S500
G1 X5.000 Y45.540 F360
M5
G0 X5.000 Y45.720
M3 S500
G1 X12.000 Y45.720 F360
M5
G0 X12.000 Y45.900
M3 S500
G1 X5.000 Y45.900 F360
M5
G0 X5.000 Y46.080
M3 S500
G1 X12.000 Y46.080 F360
M5
G0 X12.000 Y46.260
M3 S500
G1 X5.000 Y46.260 F360
M5
G0 X5.000 Y46.440
M3 S500
G1 X12.000 Y46.440 F360
M5
G0 X12.000 Y46.620
M3 S500
G1 X5.000 Y46.620 F360
M5
G0 X5.000 Y46.800
M3 S500
G1 X12.000 Y46.800 F360
M5
G0 X12.000 Y46.980
M3 S500
G1 X5.000 Y46.980 F360
M5
G0 X5.000 Y47.160
M3 S500
G1 X12.000 Y47.160 F360
M5
G0 X12.000 Y47.340
M3 S500
G1 X5.000 Y47.340 F360
M5
G0 X5.000 Y47.520
M3 S500
G1 X12.000 Y47.520 F360
M5
G0 X12.000 Y47.700
M3 S500
G1 X5.000 Y47.700 F360
M5
G0 X5.000 Y47.880
M3 S500
G1 X12.000 Y47.880 F360
M5
G0 X12.000 Y48.060
M3 S500
G1 X5.000 Y48.060 F360
M5
G0 X5.000 Y48.240
M3 S500
G1 X12.000 Y48.240 F360
M5
G0 X12.000 Y48.420
M3 S500
G1 X5.000 Y48.420 F360
M5
G0 X5.000 Y48.600
M3 S500
G1 X12.000 Y48.600 F360
M5
G0 X12.000 Y48.780
M3 S500
G1 X5.000 Y48.780 F360
M5
G0 X5.000 Y48.960
M3 S500
G1 X12.000 Y48.960 F360
M5
G0 X12.000 Y49.140
M3 S500
G1 X5.000 Y49.140 F360
M5
G0 X5.000 Y49.320
M3 S500
G1 X12.000 Y49.320 F360
M5
G0 X12.000 Y49.500
M3 S500
G1 X5.000 Y49.500 F360
M5
G0 X5.000 Y49.680
M3 S500
G1 X12.000 Y49.680 F360
M5
G0 X12.000 Y49.860
M3 S500
G1 X5.000 Y49.860 F360
M5
G0 X5.000 Y50.040
M3 S500
G1 X12.000 Y50.040 F360
M5
G0 X12.000 Y50.220
M3 S500
G1 X5.000 Y50.220 F360
M5
G0 X5.000 Y50.400
M3 S500
G1 X12.000 Y50.400 F360
M5
G0 X12.000 Y50.580
M3 S500
G1 X5.000 Y50.580 F360
M5
G0 X5.000 Y50.760
M3 S500
G1 X12.000 Y50.760 F360
M5
G0 X12.000 Y50.940
M3 S500
G1 X5.000 Y50.940 F360
M5
G0 X5.000 Y51.120
M3 S500
G1 X12.000 Y51.120 F360
M5
G0 X12.000 Y51.300
M3 S500
G1 X5.000 Y51.300 F360
M5
G0 X5.000 Y51.480
M3 S500
G1 X12.000 Y51.480 F360
M5
G0 X12.000 Y51.660
M3 S500
G1 X5.000 Y51.660 F360
M5
G0 X5.000 Y51.840
M3 S500
G1 X12.000 Y51.840 F360
M5
G0 X5.000 Y45.000
M3 S140
G1 X12.000 Y45.000 F900
M5
M3 S140
G1 X12.000 Y52.000 F900
M5
M3 S140
G1 X5.000 Y52.000 F900
M5
M3 S140
G1 X5.000 Y45.000 F900
M5
(Tile r5c2: F360, S650)
G0 X15.000 Y45.000
M3 S650
G1 X22.000 Y45.000 F360
M5
G0 X22.000 Y45.180
M3 S650
G1 X15.000 Y45.180 F360
M5
G0 X15.000 Y45.360
M3 S650
G1 X22.000 Y45.360 F360
M5
G0 X22.000 Y45.540
M3 S650
G1 X15.000 Y45.540 F360
M5
G0 X15.000 Y45.720
M3 S650
G1 X22.000 Y45.720 F360
M5
G0 X22.000 Y45.900
M3 S650
G1 X15.000 Y45.900 F360
M5
G0 X15.000 Y46.080
M3 S650
G1 X22.000 Y46.080 F360
M5
G0 X22.000 Y46.260
M3 S650
G1 X15.000 Y46.260 F360
M5
G0 X15.000 Y46.440
M3 S650
G1 X22.000 Y46.440 F360
M5
G0 X22.000 Y46.620
M3 S650
G1 X15.000 Y46.620 F360
M5
G0 X15.000 Y46.800
M3 S650
G1 X22.000 Y46.800 F360
M5
G0 X22.000 Y46.980
M3 S650
G1 X15.000 Y46.980 F360
M5
G0 X15.000 Y47.160
M3 S650
G1 X22.000 Y47.160 F360
M5
G0 X22.000 Y47.340
M3 S650
G1 X15.000 Y47.340 F360
M5
G0 X15.000 Y47.520
M3 S650
G1 X22.000 Y47.520 F360
M5
G0 X22.000 Y47.700
M3 S650
G1 X15.000 Y47.700 F360
M5
G0 X15.000 Y47.880
M3 S650
G1 X22.000 Y47.880 F360
M5
G0 X22.000 Y48.060
M3 S650
G1 X15.000 Y48.060 F360
M5
G0 X15.000 Y48.240
M3 S650
G1 X22.000 Y48.240 F360
M5
G0 X22.000 Y48.420
M3 S650
G1 X15.000 Y48.420 F360
M5
G0 X15.000 Y48.600
M3 S650
G1 X22.000 Y48.600 F360
M5
G0 X22.000 Y48.780
M3 S650
G1 X15.000 Y48.780 F360
M5
G0 X15.000 Y48.960
M3 S650
G1 X22.000 Y48.960 F360
M5
G0 X22.000 Y49.140
M3 S650
G1 X15.000 Y49.140 F360
M5
G0 X15.000 Y49.320
M3 S650
G1 X22.000 Y49.320 F360
M5
G0 X22.000 Y49.500
M3 S650
G1 X15.000 Y49.500 F360
M5
G0 X15.000 Y49.680
M3 S650
G1 X22.000 Y49.680 F360
M5
G0 X22.000 Y49.860
M3 S650
G1 X15.000 Y49.860 F360
M5
G0 X15.000 Y50.040
M3 S650
G1 X22.000 Y50.040 F360
M5
G0 X22.000 Y50.220
M3 S650
G1 X15.000 Y50.220 F360
M5
G0 X15.000 Y50.400
M3 S650
G1 X22.000 Y50.400 F360
M5
G0 X22.000 Y50.580
M3 S650
G1 X15.000 Y50.580 F360
M5
G0 X15.000 Y50.760
M3 S650
G1 X22.000 Y50.760 F360
M5
G0 X22.000 Y50.940
M3 S650
G1 X15.000 Y50.940 F360
M5
G0 X15.000 Y51.120
M3 S650
G1 X22.000 Y51.120 F360
M5
G0 X22.000 Y51.300
M3 S650
G1 X15.000 Y51.300 F360
M5
G0 X15.000 Y51.480
M3 S650
G1 X22.000 Y51.480 F360
M5
G0 X22.000 Y51.660
M3 S650
G1 X15.000 Y51.660 F360
M5
G0 X15.000 Y51.840
M3 S650
G1 X22.000 Y51.840 F360
M5
G0 X15.000 Y45.000
M3 S650
G1 X22.000 Y45.000 F360
M5
G0 X22.000 Y45.180
M3 S650
G1 X15.000 Y45.180 F360
M5
G0 X15.000 Y45.360
M3 S650
G1 X22.000 Y45.360 F360
M5
G0 X22.000 Y45.540
M3 S650
G1 X15.000 Y45.540 F360
M5
G0 X15.000 Y45.720
M3 S650
G1 X22.000 Y45.720 F360
M5
G0 X22.000 Y45.900
M3 S650
G1 X15.000 Y45.900 F360
M5
G0 X15.000 Y46.080
M3 S650
G1 X22.000 Y46.080 F360
M5
G0 X22.000 Y46.260
M3 S650
G1 X15.000 Y46.260 F360
M5
G0 X15.000 Y46.440
M3 S650
G1 X22.000 Y46.440 F360
M5
G0 X22.000 Y46.620
M3 S650
G1 X15.000 Y46.620 F360
M5
G0 X15.000 Y46.800
M3 S650
G1 X22.000 Y46.800 F360
M5
G0 X22.000 Y46.980
M3 S650
G1 X15.000 Y46.980 F360
M5
G0 X15.000 Y47.160
M3 S650
G1 X22.000 Y47.160 F360
M5
G0 X22.000 Y47.340
M3 S650
G1 X15.000 Y47.340 F360
M5
G0 X15.000 Y47.520
M3 S650
G1 X22.000 Y47.520 F360
M5
G0 X22.000 Y47.700
M3 S650
G1 X15.000 Y47.700 F360
M5
G0 X15.000 Y47.880
M3 S650
G1 X22.000 Y47.880 F360
M5
G0 X22.000 Y48.060
M3 S650
G1 X15.000 Y48.060 F360
M5
G0 X15.000 Y48.240
M3 S650
G1 X22.000 Y48.240 F360
M5
G0 X22.000 Y48.420
M3 S650
G1 X15.000 Y48.420 F360
M5
G0 X15.000 Y48.600
M3 S650
G1 X22.000 Y48.600 F360
M5
G0 X22.000 Y48.780
M3 S650
G1 X15.000 Y48.780 F360
M5
G0 X15.000 Y48.960
M3 S650
G1 X22.000 Y48.960 F360
M5
G0 X22.000 Y49.140
M3 S650
G1 X15.000 Y49.140 F360
M5
G0 X15.000 Y49.320
M3 S650
G1 X22.000 Y49.320 F360
M5
G0 X22.000 Y49.500
M3 S650
G1 X15.000 Y49.500 F360
M5
G0 X15.000 Y49.680
M3 S650
G1 X22.000 Y49.680 F360
M5
G0 X22.000 Y49.860
M3 S650
G1 X15.000 Y49.860 F360
M5
G0 X15.000 Y50.040
M3 S650
G1 X22.000 Y50.040 F360
M5
G0 X22.000 Y50.220
M3 S650
G1 X15.000 Y50.220 F360
M5
G0 X15.000 Y50.400
M3 S650
G1 X22.000 Y50.400 F360
M5
G0 X22.000 Y50.580
M3 S650
G1 X15.000 Y50.580 F360
M5
G0 X15.000 Y50.760
M3 S650
G1 X22.000 Y50.760 F360
M5
G0 X22.000 Y50.940
M3 S650
G1 X15.000 Y50.940 F360
M5
G0 X15.000 Y51.120
M3 S650
G1 X22.000 Y51.120 F360
M5
G0 X22.000 Y51.300
M3 S650
G1 X15.000 Y51.300 F360
M5
G0 X15.000 Y51.480
M3 S650
G1 X22.000 Y51.480 F360
M5
G0 X22.000 Y51.660
M3 S650
G1 X15.000 Y51.660 F360
M5
G0 X15.000 Y51.840
M3 S650
G1 X22.000 Y51.840 F360
M5
G0 X15.000 Y45.000
M3 S140
G1 X22.000 Y45.000 F900
M5
M3 S140
G1 X22.000 Y52.000 F900
M5
M3 S140
G1 X15.000 Y52.000 F900
M5
M3 S140
G1 X15.000 Y45.000 F900
M5
(Tile r5c3: F360, S800)
G0 X25.000 Y45.000
M3 S800
G1 X32.000 Y45.000 F360
M5
G0 X32.000 Y45.180
M3 S800
G1 X25.000 Y45.180 F360
M5
G0 X25.000 Y45.360
M3 S800
G1 X32.000 Y45.360 F360
M5
G0 X32.000 Y45.540
M3 S800
G1 X25.000 Y45.540 F360
M5
G0 X25.000 Y45.720
M3 S800
G1 X32.000 Y45.720 F360
M5
G0 X32.000 Y45.900
M3 S800
G1 X25.000 Y45.900 F360
M5
G0 X25.000 Y46.080
M3 S800
G1 X32.000 Y46.080 F360
M5
G0 X32.000 Y46.260
M3 S800
G1 X25.000 Y46.260 F360
M5
G0 X25.000 Y46.440
M3 S800
G1 X32.000 Y46.440 F360
M5
G0 X32.000 Y46.620
M3 S800
G1 X25.000 Y46.620 F360
M5
G0 X25.000 Y46.800
M3 S800
G1 X32.000 Y46.800 F360
M5
G0 X32.000 Y46.980
M3 S800
G1 X25.000 Y46.980 F360
M5
G0 X25.000 Y47.160
M3 S800
G1 X32.000 Y47.160 F360
M5
G0 X32.000 Y47.340
M3 S800
G1 X25.000 Y47.340 F360
M5
G0 X25.000 Y47.520
M3 S800
G1 X32.000 Y47.520 F360
M5
G0 X32.000 Y47.700
M3 S800
G1 X25.000 Y47.700 F360
M5
G0 X25.000 Y47.880
M3 S800
G1 X32.000 Y47.880 F360
M5
G0 X32.000 Y48.060
M3 S800
G1 X25.000 Y48.060 F360
M5
G0 X25.000 Y48.240
M3 S800
G1 X32.000 Y48.240 F360
M5
G0 X32.000 Y48.420
M3 S800
G1 X25.000 Y48.420 F360
M5
G0 X25.000 Y48.600
M3 S800
G1 X32.000 Y48.600 F360
M5
G0 X32.000 Y48.780
M3 S800
G1 X25.000 Y48.780 F360
M5
G0 X25.000 Y48.960
M3 S800
G1 X32.000 Y48.960 F360
M5
G0 X32.000 Y49.140
M3 S800
G1 X25.000 Y49.140 F360
M5
G0 X25.000 Y49.320
M3 S800
G1 X32.000 Y49.320 F360
M5
G0 X32.000 Y49.500
M3 S800
G1 X25.000 Y49.500 F360
M5
G0 X25.000 Y49.680
M3 S800
G1 X32.000 Y49.680 F360
M5
G0 X32.000 Y49.860
M3 S800
G1 X25.000 Y49.860 F360
M5
G0 X25.000 Y50.040
M3 S800
G1 X32.000 Y50.040 F360
M5
G0 X32.000 Y50.220
M3 S800
G1 X25.000 Y50.220 F360
M5
G0 X25.000 Y50.400
M3 S800
G1 X32.000 Y50.400 F360
M5
G0 X32.000 Y50.580
M3 S800
G1 X25.000 Y50.580 F360
M5
G0 X25.000 Y50.760
M3 S800
G1 X32.000 Y50.760 F360
M5
G0 X32.000 Y50.940
M3 S800
G1 X25.000 Y50.940 F360
M5
G0 X25.000 Y51.120
M3 S800
G1 X32.000 Y51.120 F360
M5
G0 X32.000 Y51.300
M3 S800
G1 X25.000 Y51.300 F360
M5
G0 X25.000 Y51.480
M3 S800
G1 X32.000 Y51.480 F360
M5
G0 X32.000 Y51.660
M3 S800
G1 X25.000 Y51.660 F360
M5
G0 X25.000 Y51.840
M3 S800
G1 X32.000 Y51.840 F360
M5
G0 X25.000 Y45.000
M3 S800
G1 X32.000 Y45.000 F360
M5
G0 X32.000 Y45.180
M3 S800
G1 X25.000 Y45.180 F360
M5
G0 X25.000 Y45.360
M3 S800
G1 X32.000 Y45.360 F360
M5
G0 X32.000 Y45.540
M3 S800
G1 X25.000 Y45.540 F360
M5
G0 X25.000 Y45.720
M3 S800
G1 X32.000 Y45.720 F360
M5
G0 X32.000 Y45.900
M3 S800
G1 X25.000 Y45.900 F360
M5
G0 X25.000 Y46.080
M3 S800
G1 X32.000 Y46.080 F360
M5
G0 X32.000 Y46.260
M3 S800
G1 X25.000 Y46.260 F360
M5
G0 X25.000 Y46.440
M3 S800
G1 X32.000 Y46.440 F360
M5
G0 X32.000 Y46.620
M3 S800
G1 X25.000 Y46.620 F360
M5
G0 X25.000 Y46.800
M3 S800
G1 X32.000 Y46.800 F360
M5
G0 X32.000 Y46.980
M3 S800
G1 X25.000 Y46.980 F360
M5
G0 X25.000 Y47.160
M3 S800
G1 X32.000 Y47.160 F360
M5
G0 X32.000 Y47.340
M3 S800
G1 X25.000 Y47.340 F360
M5
G0 X25.000 Y47.520
M3 S800
G1 X32.000 Y47.520 F360
M5
G0 X32.000 Y47.700
M3 S800
G1 X25.000 Y47.700 F360
M5
G0 X25.000 Y47.880
M3 S800
G1 X32.000 Y47.880 F360
M5
G0 X32.000 Y48.060
M3 S800
G1 X25.000 Y48.060 F360
M5
G0 X25.000 Y48.240
M3 S800
G1 X32.000 Y48.240 F360
M5
G0 X32.000 Y48.420
M3 S800
G1 X25.000 Y48.420 F360
M5
G0 X25.000 Y48.600
M3 S800
G1 X32.000 Y48.600 F360
M5
G0 X32.000 Y48.780
M3 S800
G1 X25.000 Y48.780 F360
M5
G0 X25.000 Y48.960
M3 S800
G1 X32.000 Y48.960 F360
M5
G0 X32.000 Y49.140
M3 S800
G1 X25.000 Y49.140 F360
M5
G0 X25.000 Y49.320
M3 S800
G1 X32.000 Y49.320 F360
M5
G0 X32.000 Y49.500
M3 S800
G1 X25.000 Y49.500 F360
M5
G0 X25.000 Y49.680
M3 S800
G1 X32.000 Y49.680 F360
M5
G0 X32.000 Y49.860
M3 S800
G1 X25.000 Y49.860 F360
M5
G0 X25.000 Y50.040
M3 S800
G1 X32.000 Y50.040 F360
M5
